; generated by PrusaSlicer 2.5.2+MacOS-arm64 on 2023-05-24 at 12:43:54 UTC


;
;
; 

; external perimeters extrusion width = 0.45mm
; perimeters extrusion width = 0.45mm
; infill extrusion width = 0.45mm
; solid infill extrusion width = 0.45mm
; top infill extrusion width = 0.40mm
; first layer extrusion width = 0.42mm

M73 P0 R77
M73 Q0 S77
M201 X1000 Y1000 Z200 E5000 ; sets maximum accelerations, mm/sec^2
M203 X200 Y200 Z12 E120 ; sets maximum feedrates, mm / sec
M204 P1250 R1250 T1250 ; sets acceleration (P, T) and retract acceleration (R), mm/sec^2
M205 X8.00 Y8.00 Z0.40 E4.50 ; sets the jerk limits, mm/sec
M205 S0 T0 ; sets the minimum extruding and travel feed rate, mm/sec
M107
;TYPE:Custom
M862.3 P "MK3S" ; printer model check
M862.1 P0.4 ; nozzle diameter check
M115 U3.12.2 ; tell printer latest fw version
G90 ; use absolute coordinates
M83 ; extruder relative mode
M104 S215 ; set extruder temp
M140 S60 ; set bed temp
M190 S60 ; wait for bed temp
M109 S215 ; wait for extruder temp
G28 W ; home all without mesh bed level
G80 ; mesh bed leveling

G1 Z0.2 F720
G1 Y-3 F1000 ; go outside print area
G92 E0
G1 X60 E9 F1000 ; intro line
G1 X100 E12.5 F1000 ; intro line

G92 E0
M221 S95

; Don't change E values below. Excessive value can damage the printer.

M907 E538 ; set extruder motor current
G21 ; set units to millimeters
G90 ; use absolute coordinates
M83 ; use relative distances for extrusion
M900 K0.05 ; Filament gcode LA 1.5
M900 K30 ; Filament gcode LA 1.0
M107
;LAYER_CHANGE
;Z:0.2
;HEIGHT:0.2
;BEFORE_LAYER_CHANGE
G92 E0.0
;0.2


G1 E-.8 F2100
G1 Z.4 F720
;AFTER_LAYER_CHANGE
;0.2
G1 X91.794 Y81.157 F10800
G1 Z.2 F720
G1 E.8 F2100
M204 S800
;TYPE:Skirt/Brim
;WIDTH:0.42
G1 F1200
G1 X94.782 Y78.169 E.13247
G1 X96.463 Y77.473 E.05704
G1 X104.287 Y77.473 E.24535
G1 X105.509 Y77.811 E.03974
G1 X154.759 Y107.311 E1.80002
G1 X155.218 Y107.669 E.01827
G1 X158.206 Y110.657 E.13247
G1 X158.902 Y112.338 E.05704
G1 X158.902 Y127.162 E.46483
G1 X158.206 Y128.843 E.05704
G1 X155.218 Y131.831 E.13247
G1 X153.537 Y132.527 E.05704
G1 X145.378 Y132.503 E.25584
G1 X96.128 Y125.503 E1.55972
G1 X94.782 Y124.831 E.04719
G1 X91.794 Y121.843 E.13247
G1 X91.098 Y120.162 E.05704
G1 X91.098 Y82.838 E1.1703
G1 X91.771 Y81.212 E.05516
M204 S1000
;WIPE_START
G1 F8640
G1 X94.086 Y78.872 E-.76
;WIPE_END
G1 E-.04 F2100
G1 Z.6 F720
G1 X94.258 Y82.815 F10800
G1 Z.2 F720
G1 E.8 F2100
M204 S800
G1 F1200
G1 X94.877 Y81.856 E.03578
G1 X95.838 Y80.974 E.04089
G1 X96.67 Y80.517 E.02978
G1 X97.712 Y80.205 E.03409
G1 X103.111 Y80.208 E.16929
G1 X103.88 Y80.435 E.02516
G1 X104.599 Y80.769 E.02484
G1 X105.682 Y81.642 E.04362
G1 X106.448 Y82.709 E.04119
G1 X106.902 Y83.961 E.04175
G1 X106.984 Y92.334 E.26255
G1 X124.286 Y109.637 E.76722
G1 X151.789 Y109.637 E.86233
G1 X153.233 Y109.978 E.04653
G1 X154.537 Y110.755 E.0476
G1 X155.118 Y111.347 E.02602
G1 X155.607 Y112.023 E.02616
G1 X156.238 Y114.001 E.06508
G1 X156.238 Y125.469 E.3596
G1 X155.866 Y126.933 E.04737
G1 X155.06 Y128.225 E.04772
G1 X154.449 Y128.803 E.0264
G1 X153.829 Y129.247 E.02389
G1 X151.872 Y129.863 E.06435
G1 X147.398 Y129.863 E.14028
G1 X145.799 Y129.431 E.05193
G1 X144.997 Y128.958 E.02918
G1 X144.285 Y128.325 E.02989
G1 X143.511 Y127.215 E.04241
G1 X143.039 Y125.678 E.05043
M73 Q0 S76
G1 X143.022 Y122.863 E.08824
G1 X98.156 Y122.863 E1.40674
G1 X96.692 Y122.491 E.04737
G1 X95.4 Y121.685 E.04772
G1 X94.822 Y121.074 E.0264
G1 X94.378 Y120.454 E.02389
G1 X93.761 Y118.495 E.0644
G1 X93.83 Y84.059 E1.07972
G1 X94.226 Y82.866 E.03942
M204 S1000
G1 X94.544 Y83.068 F10800
M204 S800
G1 F1200
G1 X95.18 Y82.081 E.03679
G1 X96.074 Y81.269 E.03789
G1 X96.8 Y80.871 E.02594
G1 X97.741 Y80.582 E.03087
G1 X103.031 Y80.577 E.16587
G1 X103.734 Y80.783 E.02298
G1 X104.418 Y81.101 E.02364
G1 X105.424 Y81.918 E.04062
G1 X106.125 Y82.905 E.03797
G1 X106.536 Y84.057 E.03835
G1 X106.608 Y92.492 E.26446
G1 X124.13 Y110.014 E.77696
G1 X151.766 Y110.014 E.86652
G1 X153.117 Y110.337 E.04355
G1 X154.285 Y111.036 E.04267
G1 X154.839 Y111.601 E.0248
G1 X155.284 Y112.219 E.02388
G1 X155.861 Y114.03 E.0596
G1 X155.861 Y125.445 E.35792
G1 X155.508 Y126.81 E.04422
G1 X154.784 Y127.967 E.04279
G1 X154.199 Y128.52 E.02524
G1 X153.635 Y128.923 E.02173
G1 X151.843 Y129.486 E.05889
G1 X147.423 Y129.486 E.1386
G1 X145.968 Y129.093 E.04723
G1 X145.205 Y128.643 E.02779
G1 X144.553 Y128.058 E.02746
G1 X143.862 Y127.074 E.0377
G1 X143.416 Y125.647 E.04688
G1 X143.396 Y122.486 E.0991
G1 X98.18 Y122.486 E1.41773
G1 X96.815 Y122.133 E.04422
G1 X95.658 Y121.409 E.04279
G1 X95.105 Y120.824 E.02524
G1 X94.702 Y120.26 E.02173
G1 X94.138 Y118.467 E.05893
G1 X94.198 Y84.146 E1.0761
G1 X94.526 Y83.125 E.03363
M204 S1000
G1 X94.885 Y83.24 F10800
M204 S800
G1 F1200
G1 X95.482 Y82.309 E.03469
G1 X96.31 Y81.564 E.03491
G1 X96.932 Y81.225 E.02222
G1 X97.772 Y80.959 E.02762
G1 X102.951 Y80.947 E.1624
G1 X103.614 Y81.141 E.02167
G1 X104.237 Y81.432 E.02154
G1 X105.165 Y82.192 E.03761
G1 X105.801 Y83.1 E.03474
G1 X106.17 Y84.152 E.03496
G1 X106.232 Y92.649 E.26642
G1 X123.974 Y110.391 E.78671
G1 X151.744 Y110.391 E.87074
G1 X152.95 Y110.677 E.03885
G1 X154.034 Y111.318 E.0395
G1 X154.541 Y111.833 E.02266
G1 X154.96 Y112.415 E.02248
G1 X155.484 Y114.059 E.0541
G1 X155.484 Y125.422 E.35627
G1 X155.172 Y126.637 E.03933
G1 X154.506 Y127.71 E.03961
G1 X153.95 Y128.237 E.02404
G1 X153.441 Y128.598 E.01956
G1 X151.814 Y129.109 E.05346
G1 X147.448 Y129.109 E.13692
G1 X146.137 Y128.754 E.04258
G1 X145.442 Y128.349 E.02522
G1 X144.82 Y127.792 E.02619
G1 X144.212 Y126.931 E.03303
G1 X143.793 Y125.615 E.0433
G1 X143.771 Y122.109 E.10993
G1 X98.203 Y122.109 E1.42875
G1 X96.988 Y121.797 E.03933
G1 X95.915 Y121.131 E.03961
G1 X95.388 Y120.575 E.02404
G1 X95.027 Y120.066 E.01956
G1 X94.516 Y118.438 E.05349
G1 X94.566 Y84.233 E1.07247
G1 X94.867 Y83.297 E.03083
M204 S1000
M73 P1 R77
M73 Q1 S76
G1 X95.22 Y83.409 F10800
M204 S800
G1 F1200
G1 X95.784 Y82.536 E.03256
G1 X96.543 Y81.861 E.03187
G1 X97.066 Y81.578 E.01864
G1 X97.804 Y81.335 E.02434
G1 X102.872 Y81.316 E.15893
G1 X103.468 Y81.489 E.01944
G1 X104.055 Y81.764 E.02031
G1 X104.904 Y82.466 E.03455
G1 X105.476 Y83.292 E.03151
G1 X105.803 Y84.245 E.03159
G1 X105.855 Y92.806 E.26843
G1 X123.817 Y110.768 E.79646
G1 X151.722 Y110.768 E.87492
G1 X152.833 Y111.036 E.03586
G1 X153.783 Y111.601 E.03465
G1 X154.244 Y112.065 E.02051
G1 X154.636 Y112.611 E.02107
G1 X155.107 Y114.088 E.04861
G1 X155.107 Y125.397 E.35458
G1 X154.815 Y126.513 E.03617
G1 X154.23 Y127.453 E.03471
G1 X153.7 Y127.954 E.02285
G1 X153.248 Y128.273 E.01737
G1 X151.786 Y128.732 E.04805
G1 X147.473 Y128.732 E.13523
G1 X146.303 Y128.415 E.03798
G1 X145.679 Y128.055 E.02262
G1 X145.087 Y127.524 E.02492
G1 X144.561 Y126.786 E.02841
G1 X144.169 Y125.583 E.03966
G1 X144.146 Y121.732 E.12075
G1 X98.228 Y121.732 E1.43973
G1 X97.112 Y121.44 E.03617
G1 X96.172 Y120.855 E.03471
G1 X95.671 Y120.325 E.02285
G1 X95.352 Y119.873 E.01737
G1 X94.893 Y118.41 E.04807
G1 X94.934 Y84.319 E1.06891
G1 X95.202 Y83.466 E.02803
M204 S1000
M73 P1 R76
G1 X95.562 Y83.579 F10800
M204 S800
G1 F1200
G1 X95.577 Y83.531 E.00159
G1 X96.083 Y82.766 E.02874
G1 X96.775 Y82.159 E.02887
G1 X97.203 Y81.929 E.01523
G1 X97.838 Y81.712 E.02102
G1 X102.794 Y81.686 E.1554
G1 X103.348 Y81.847 E.0181
G1 X103.871 Y82.094 E.01813
G1 X104.641 Y82.738 E.03147
G1 X105.149 Y83.482 E.02825
G1 X105.436 Y84.336 E.02825
G1 X105.479 Y92.963 E.27049
G1 X123.661 Y111.145 E.80623
G1 X151.7 Y111.145 E.87913
G1 X152.667 Y111.376 E.03119
G1 X153.533 Y111.884 E.03148
G1 X153.966 Y112.32 E.01924
G1 X154.312 Y112.806 E.01872
G1 X154.73 Y114.117 E.04315
G1 X154.73 Y125.373 E.35292
G1 X154.479 Y126.34 E.03133
G1 X153.952 Y127.196 E.03152
G1 X153.452 Y127.67 E.02162
G1 X153.056 Y127.948 E.01516
G1 X151.757 Y128.355 E.04268
G1 X147.498 Y128.355 E.13355
G1 X146.469 Y128.076 E.03342
G1 X145.915 Y127.76 E.01999
G1 X145.354 Y127.257 E.02364
G1 X144.91 Y126.639 E.02386
G1 X144.546 Y125.551 E.03597
G1 X144.521 Y121.355 E.13154
G1 X98.252 Y121.355 E1.45073
G1 X97.285 Y121.104 E.03133
G1 X96.429 Y120.577 E.03152
G1 X95.955 Y120.077 E.02162
G1 X95.677 Y119.681 E.01516
G1 X95.27 Y118.382 E.04269
G1 X95.302 Y84.404 E1.06533
G1 X95.544 Y83.636 E.02525
M204 S1000
G1 X95.904 Y83.749 F10800
M204 S800
G1 F1200
G1 X95.928 Y83.67 E.0026
G1 X96.381 Y82.999 E.0254
G1 X97.005 Y82.459 E.02587
G1 X97.344 Y82.279 E.01203
G1 X97.874 Y82.089 E.01764
G1 X102.717 Y82.056 E.15185
G1 X103.201 Y82.195 E.01581
G1 X103.687 Y82.424 E.01685
G1 X104.377 Y83.008 E.02832
G1 X104.821 Y83.669 E.02499
G1 X105.069 Y84.424 E.02492
G1 X105.103 Y93.119 E.27263
G1 X123.505 Y111.522 E.816
G1 X151.678 Y111.522 E.88335
G1 X152.503 Y111.716 E.02658
G1 X153.285 Y112.169 E.02831
G1 X153.668 Y112.552 E.01699
G1 X153.988 Y113.001 E.01729
G1 X154.353 Y114.146 E.03769
G1 X154.353 Y125.348 E.35122
G1 X154.122 Y126.216 E.02816
G1 X153.675 Y126.939 E.02666
G1 X153.203 Y127.386 E.0204
G1 X152.864 Y127.622 E.01292
G1 X151.728 Y127.978 E.03734
G1 X147.524 Y127.978 E.13182
G1 X146.595 Y127.72 E.03024
G1 X146.123 Y127.445 E.01711
G1 X145.623 Y126.992 E.02116
G1 X145.234 Y126.445 E.02104
G1 X144.914 Y125.463 E.0324
G1 X144.897 Y120.978 E.14061
G1 X98.277 Y120.978 E1.46173
G1 X97.409 Y120.747 E.02816
G1 X96.686 Y120.3 E.02666
G1 X96.239 Y119.828 E.0204
G1 X96.003 Y119.489 E.01292
G1 X95.647 Y118.353 E.03734
G1 X95.671 Y84.49 E1.06175
G1 X95.886 Y83.807 E.02247
M204 S1000
G1 X96.24 Y83.915 F10800
M204 S800
G1 F1200
G1 X96.259 Y83.855 E.00198
G1 X96.649 Y83.265 E.02218
G1 X97.203 Y82.78 E.02307
G1 X97.485 Y82.629 E.01003
G1 X97.971 Y82.455 E.01619
G1 X102.641 Y82.426 E.14643
G1 X103.055 Y82.542 E.01349
G1 X103.503 Y82.754 E.01552
G1 X104.11 Y83.275 E.02511
G1 X104.491 Y83.854 E.02171
G1 X104.701 Y84.511 E.02162
G1 X104.726 Y93.276 E.27483
G1 X123.349 Y111.899 E.82578
G1 X151.657 Y111.899 E.88758
G1 X152.341 Y112.058 E.02203
G1 X153.036 Y112.454 E.02508
G1 X153.39 Y112.807 E.01566
G1 X153.664 Y113.194 E.01488
G1 X153.976 Y114.175 E.03228
G1 X153.976 Y125.322 E.3495
G1 X153.766 Y126.089 E.02494
G1 X153.399 Y126.682 E.02187
G1 X152.955 Y127.102 E.01916
G1 X152.675 Y127.295 E.01066
G1 X151.699 Y127.601 E.03205
G1 X147.551 Y127.601 E.13007
G1 X146.723 Y127.364 E.02699
G1 X146.334 Y127.132 E.01423
G1 X145.893 Y126.729 E.01872
G1 X145.56 Y126.253 E.0182
G1 X145.282 Y125.377 E.02883
G1 X145.274 Y120.601 E.14975
G1 X98.303 Y120.601 E1.47273
G1 X97.536 Y120.391 E.02494
M73 Q1 S75
G1 X96.943 Y120.024 E.02187
G1 X96.523 Y119.58 E.01916
G1 X96.33 Y119.3 E.01066
G1 X96.024 Y118.324 E.03205
G1 X96.039 Y84.573 E1.05826
G1 X96.223 Y83.972 E.01968
M204 S1000
G1 X96.578 Y84.077 F10800
M204 S800
G1 F1200
G1 X96.92 Y83.529 E.02024
G1 X97.403 Y83.1 E.02026
G1 X97.626 Y82.979 E.00797
G1 X98.068 Y82.821 E.01471
G1 X102.566 Y82.797 E.14106
G1 X102.909 Y82.891 E.01115
G1 X103.317 Y83.083 E.01414
G1 X103.841 Y83.541 E.0218
G1 X104.159 Y84.035 E.01843
G1 X104.332 Y84.594 E.01836
G1 X104.349 Y93.432 E.27712
G1 X123.193 Y112.276 E.83556
G1 X151.636 Y112.276 E.89183
G1 X152.182 Y112.401 E.01755
G1 X152.789 Y112.739 E.02179
G1 X153.111 Y113.062 E.01428
G1 X153.338 Y113.387 E.01243
G1 X153.599 Y114.205 E.02692
G1 X153.599 Y125.295 E.34774
G1 X153.411 Y125.96 E.02167
G1 X153.122 Y126.425 E.01715
G1 X152.707 Y126.817 E.0179
G1 X152.486 Y126.967 E.00836
G1 X151.67 Y127.224 E.02682
G1 X147.579 Y127.224 E.12829
G1 X146.856 Y127.011 E.02363
G1 X146.548 Y126.822 E.01132
G1 X146.166 Y126.467 E.01635
G1 X145.888 Y126.064 E.01534
G1 X145.651 Y125.294 E.02526
G1 X145.651 Y120.224 E.15897
G1 X98.33 Y120.224 E1.48372
G1 X97.665 Y120.036 E.02167
M73 P2 R76
M73 Q2 S75
G1 X97.2 Y119.747 E.01715
G1 X96.808 Y119.332 E.0179
G1 X96.658 Y119.111 E.00836
G1 X96.401 Y118.295 E.02682
G1 X96.409 Y84.652 E1.05486
G1 X96.561 Y84.134 E.01693
M204 S1000
G1 X96.923 Y84.241 F10800
M204 S800
G1 F1200
G1 X96.944 Y84.169 E.00236
G1 X97.19 Y83.793 E.01409
G1 X97.606 Y83.419 E.01753
G1 X97.768 Y83.328 E.00583
G1 X98.164 Y83.187 E.01319
G1 X102.494 Y83.168 E.13577
G1 X102.764 Y83.239 E.00876
G1 X103.131 Y83.412 E.0127
G1 X103.571 Y83.804 E.01848
G1 X103.807 Y84.171 E.01366
G1 X103.963 Y84.678 E.01666
G1 X103.972 Y93.589 E.27938
G1 X123.036 Y112.653 E.84535
G1 X151.616 Y112.653 E.89609
G1 X152.026 Y112.745 E.01318
G1 X152.542 Y113.026 E.01842
G1 X152.832 Y113.316 E.01284
G1 X153.012 Y113.577 E.00995
G1 X153.222 Y114.234 E.02163
G1 X153.222 Y125.267 E.34594
G1 X153.057 Y125.828 E.01834
G1 X152.845 Y126.167 E.01254
G1 X152.46 Y126.532 E.01662
G1 X152.3 Y126.638 E.00602
G1 X151.641 Y126.847 E.02168
G1 X147.608 Y126.847 E.12647
G1 X146.991 Y126.658 E.02022
G1 X146.792 Y126.533 E.00738
G1 X146.438 Y126.206 E.01511
G1 X146.216 Y125.877 E.01244
G1 X146.028 Y125.266 E.02005
G1 X146.028 Y119.847 E.16991
G1 X98.358 Y119.847 E1.49467
G1 X97.797 Y119.682 E.01834
G1 X97.458 Y119.47 E.01254
G1 X97.093 Y119.085 E.01662
G1 X96.987 Y118.925 E.00602
G1 X96.778 Y118.266 E.02168
G1 X96.778 Y84.733 E1.05142
G1 X96.906 Y84.299 E.0142
M204 S1000
G1 X97.264 Y84.409 F10800
M204 S800
G1 F1200
G1 X97.296 Y84.307 E.00336
G1 X97.462 Y84.055 E.00946
G1 X97.813 Y83.734 E.01491
G1 X97.913 Y83.677 E.0036
G1 X98.261 Y83.552 E.01161
G1 X102.426 Y83.539 E.13058
G1 X102.621 Y83.588 E.00631
G1 X102.943 Y83.741 E.01117
G1 X103.298 Y84.065 E.01508
G1 X103.454 Y84.307 E.00902
G1 X103.595 Y84.762 E.01495
G1 X103.595 Y93.745 E.28164
G1 X122.88 Y113.03 E.85515
G1 X151.596 Y113.03 E.90037
G1 X151.874 Y113.091 E.00892
G1 X152.296 Y113.313 E.01496
G1 X152.552 Y113.569 E.01132
G1 X152.684 Y113.765 E.00743
G1 X152.845 Y114.264 E.01642
G1 X152.845 Y125.238 E.34408
G1 X152.704 Y125.692 E.01493
G1 X152.569 Y125.91 E.00804
G1 X152.215 Y126.245 E.01528
G1 X152.118 Y126.307 E.00362
G1 X151.612 Y126.47 E.01667
G1 X147.638 Y126.47 E.12458
G1 X147.132 Y126.307 E.01667
G1 X147.037 Y126.246 E.00355
G1 X146.712 Y125.946 E.01387
G1 X146.546 Y125.693 E.00948
G1 X146.405 Y125.238 E.01495
G1 X146.405 Y119.47 E.18085
G1 X98.387 Y119.47 E1.50557
G1 X97.933 Y119.329 E.01493
G1 X97.715 Y119.194 E.00804
G1 X97.38 Y118.84 E.01528
G1 X97.318 Y118.743 E.00362
G1 X97.155 Y118.237 E.01667
G1 X97.155 Y84.762 E1.04956
G1 X97.247 Y84.466 E.00971
M204 S1000
G1 X97.602 Y84.583 F10800
M204 S800
G1 F1200
G1 X97.645 Y84.451 E.00437
G1 X97.735 Y84.316 E.00506
G1 X98.027 Y84.045 E.01251
G1 X98.358 Y83.918 E.0111
G1 X102.362 Y83.911 E.12556
G1 X102.479 Y83.938 E.00376
G1 X102.753 Y84.068 E.0095
G1 X103.022 Y84.323 E.0116
G1 X103.105 Y84.45 E.00476
G1 X103.218 Y84.794 E.01136
G1 X103.218 Y93.901 E.28554
G1 X122.724 Y113.407 E.86494
G1 X151.578 Y113.407 E.90468
G1 X151.729 Y113.439 E.00484
M73 P2 R75
G1 X152.052 Y113.602 E.01136
G1 X152.27 Y113.821 E.00967
G1 X152.355 Y113.95 E.00484
G1 X152.468 Y114.294 E.01136
G1 X152.468 Y125.206 E.34213
G1 X152.354 Y125.552 E.01143
G1 X152.291 Y125.653 E.00372
G1 X151.972 Y125.956 E.0138
G1 X151.581 Y126.093 E.01299
G1 X147.669 Y126.093 E.12265
G1 X147.308 Y125.974 E.01193
G1 X146.985 Y125.684 E.01361
G1 X146.895 Y125.549 E.00506
G1 X146.782 Y125.206 E.01134
G1 X146.782 Y119.093 E.19168
G1 X98.419 Y119.093 E1.51639
G1 X98.073 Y118.979 E.01143
G1 X97.972 Y118.916 E.00372
G1 X97.669 Y118.597 E.0138
G1 X97.532 Y118.206 E.01299
G1 X97.532 Y84.794 E1.0476
G1 X97.583 Y84.64 E.00508
M204 S1000
G1 X97.932 Y84.765 F10800
M204 S800
G1 F1200
G1 X98.007 Y84.578 E.00632
G1 X98.241 Y84.361 E.01002
G1 X98.454 Y84.284 E.00709
G1 X102.31 Y84.284 E.1209
G1 X102.56 Y84.394 E.00856
G1 X102.741 Y84.575 E.00802
G1 X102.841 Y84.829 E.00856
G1 X102.841 Y94.057 E.28934
G1 X122.568 Y113.784 E.87474
G1 X151.56 Y113.784 E.90903
G1 X151.81 Y113.894 E.00856
G1 X152.009 Y114.102 E.00902
G1 X152.091 Y114.329 E.00757
G1 X152.091 Y125.171 E.33993
G1 X151.993 Y125.422 E.00845
G1 X151.759 Y125.639 E.01002
G1 X151.546 Y125.716 E.00709
G1 X147.704 Y125.716 E.12045
G1 X147.491 Y125.639 E.00709
G1 X147.257 Y125.422 E.01002
G1 X147.159 Y125.171 E.00845
G1 X147.159 Y118.716 E.2024
G1 X98.454 Y118.716 E1.52712
G1 X98.203 Y118.618 E.00845
G1 X97.986 Y118.384 E.01002
G1 X97.909 Y118.171 E.00709
