; generated by PrusaSlicer 2.6.1+MacOS-arm64 on 2023-10-07 at 18:57:11 UTC


;
;
; 

; external perimeters extrusion width = 0.45mm
; perimeters extrusion width = 0.45mm
; infill extrusion width = 0.45mm
; solid infill extrusion width = 0.45mm
; top infill extrusion width = 0.40mm
; first layer extrusion width = 0.42mm

M73 P0 R75
M73 Q0 S75
M201 X1000 Y1000 Z200 E5000 ; sets maximum accelerations, mm/sec^2
M203 X200 Y200 Z12 E120 ; sets maximum feedrates, mm / sec
M204 S1250 T1250 ; sets acceleration (S) and retract acceleration (R), mm/sec^2
M205 X8.00 Y8.00 Z0.40 E4.50 ; sets the jerk limits, mm/sec
M205 S0 T0 ; sets the minimum extruding and travel feed rate, mm/sec
;TYPE:Custom
M862.3 P "MK3S" ; printer model check
M862.1 P0.4 ; nozzle diameter check
M115 U3.13.0 ; tell printer latest fw version
G90 ; use absolute coordinates
M83 ; extruder relative mode
M104 S215 ; set extruder temp
M140 S60 ; set bed temp
M190 S60 ; wait for bed temp
M109 S215 ; wait for extruder temp
G28 W ; home all without mesh bed level
G80 ; mesh bed leveling

G1 Z0.2 F720
G1 Y-3 F1000 ; go outside print area
G92 E0
G1 X60 E9 F1000 ; intro line
G1 X100 E12.5 F1000 ; intro line

G92 E0
M221 S95

; Don't change E values below. Excessive value can damage the printer.

M907 E538 ; set extruder motor current
G21 ; set units to millimeters
G90 ; use absolute coordinates
M83 ; use relative distances for extrusion
M900 K0.05 ; Filament gcode LA 1.5
M900 K30 ; Filament gcode LA 1.0
M107
;LAYER_CHANGE
;Z:0.2
;HEIGHT:0.2
;BEFORE_LAYER_CHANGE
G92 E0.0
;0.2


G1 E-.8 F2100
G1 Z.4 F720
;AFTER_LAYER_CHANGE
;0.2
G1 X106.15 Y79.197 F10800
G1 Z.2 F720
G1 E.8 F2100
M204 S800
;TYPE:Skirt/Brim
;WIDTH:0.42
G1 F1200
G1 X107.801 Y78.151 E.06128
G1 X140.967 Y73.437 E1.05035
G1 X142.317 Y73.641 E.04281
G1 X143.331 Y74.553 E.04276
G1 X143.655 Y75.456 E.03008
G1 X144.218 Y79.416 E.12541
G1 X144.115 Y80.518 E.0347
G1 X126.294 Y132.795 E1.73173
G1 X125.501 Y133.906 E.0428
G1 X124.378 Y134.382 E.03824
G1 X109.033 Y136.563 E.48597
G1 X107.683 Y136.359 E.04281
G1 X106.669 Y135.447 E.04276
G1 X106.345 Y134.544 E.03008
G1 X105.758 Y130.249 E.13592
G1 X105.758 Y80.504 E1.55972
G1 X106.133 Y79.255 E.04089
M204 S1000
; printing object gpu-bracket-5.stl id:0 copy 0
;WIPE_START
G1 F8640
G1 X107.801 Y78.151 E-.46187
G1 X109.251 Y77.945 E-.33813
;WIPE_END
G1 Z.6 F720
G1 X115.478 Y129.979 F10800
G1 Z.2 F720
G1 E.8 F2100
M204 S800
;TYPE:Perimeter
;WIDTH:0.419999
G1 F1200
G1 X115.65 Y129.909 E.00582
G1 X115.812 Y129.725 E.00769
G1 X115.876 Y129.533 E.00635
G1 X115.876 Y129.373 E.00502
G1 X109.025 Y81.173 E1.52646
G1 X140.633 Y76.68 E1.00101
G1 X140.975 Y79.082 E.07607
G1 X132.188 Y80.331 E.27828
G1 X131.938 Y80.431 E.00844
G1 X131.776 Y80.61 E.00757
G1 X131.709 Y80.799 E.00629
G1 X123.361 Y131.33 E1.60584
G1 X109.367 Y133.32 E.44319
G1 X109.025 Y130.918 E.07607
G1 X115.423 Y130.001 E.20265
M204 S1000
G1 X115.343 Y129.639 F10800
M204 S800
;TYPE:External perimeter
G1 F1200
G1 X115.481 Y129.543 E.00527
G1 X115.503 Y129.426 E.00373
G1 X108.599 Y80.853 E1.53828
G1 X140.954 Y76.254 E1.02466
G1 X141.401 Y79.402 E.09969
G1 X132.241 Y80.704 E.29009
G1 X132.158 Y80.738 E.00281
G1 X132.081 Y80.86 E.00452
G1 X123.688 Y131.665 E1.61454
G1 X109.046 Y133.746 E.4637
G1 X108.599 Y130.598 E.09969
G1 X115.283 Y129.648 E.21168
M204 S1000
G1 X115.494 Y129.713 F10800
;WIPE_START
G1 F8640
G1 X115.481 Y129.543 E-.05175
G1 X115.503 Y129.426 E-.02749
G1 X115.064 Y126.336 E-.72076
;WIPE_END
G1 Z.6 F720
G1 X140.616 Y77.765 F10800
G1 Z.2 F720
G1 E.8 F2100
M204 S800
;TYPE:Solid infill
;WIDTH:0.421671
M73 Q0 S74
G1 F1200
G1 X139.969 Y77.118 E.02882
G1 X139.5 Y77.184 E.01492
G1 X140.505 Y78.19 E.04478
G1 X140.591 Y78.794 E.01921
G1 X140.576 Y78.796 E.00048
G1 X139.031 Y77.251 E.06881
G1 X138.562 Y77.318 E.01492
G1 X140.107 Y78.863 E.06881
G1 X139.638 Y78.929 E.01492
G1 X138.093 Y77.384 E.06881
G1 X137.624 Y77.451 E.01492
G1 X139.169 Y78.996 E.06881
G1 X138.7 Y79.063 E.01492
G1 X137.155 Y77.518 E.06881
G1 X136.686 Y77.584 E.01492
G1 X138.231 Y79.129 E.06881
G1 X137.762 Y79.196 E.01492
G1 X136.217 Y77.651 E.06881
G1 X135.748 Y77.718 E.01492
G1 X137.293 Y79.263 E.06881
G1 X136.824 Y79.329 E.01492
G1 X135.279 Y77.784 E.06881
G1 X134.81 Y77.851 E.01492
G1 X136.355 Y79.396 E.06881
G1 X135.886 Y79.463 E.01492
G1 X134.341 Y77.918 E.06881
G1 X133.872 Y77.984 E.01492
G1 X135.417 Y79.529 E.06881
G1 X134.948 Y79.596 E.01492
G1 X133.403 Y78.051 E.06881
G1 X132.934 Y78.118 E.01492
G1 X134.479 Y79.663 E.06881
G1 X134.01 Y79.729 E.01492
G1 X132.465 Y78.184 E.06881
G1 X131.996 Y78.251 E.01492
G1 X133.541 Y79.796 E.06881
G1 X133.072 Y79.863 E.01492
G1 X131.527 Y78.318 E.06881
G1 X131.058 Y78.384 E.01492
G1 X132.603 Y79.929 E.06881
G1 X132.134 Y79.996 E.01492
G1 X130.589 Y78.451 E.06881
G1 X130.12 Y78.517 E.01492
G1 X131.751 Y80.148 E.07264
G1 X131.492 Y80.425 E.01194
G1 X129.651 Y78.584 E.08199
G1 X129.182 Y78.651 E.01492
G1 X131.36 Y80.829 E.097
G1 X131.284 Y81.289 E.01468
G1 X128.713 Y78.717 E.11453
G1 X128.244 Y78.784 E.01492
G1 X131.208 Y81.748 E.13201
G1 X131.132 Y82.208 E.01468
G1 X127.775 Y78.851 E.14951
G1 X127.306 Y78.917 E.01492
G1 X131.056 Y82.668 E.16704
G1 X130.981 Y83.128 E.01468
G1 X126.837 Y78.984 E.18457
G1 X126.368 Y79.051 E.01492
G1 X130.905 Y83.587 E.20205
G1 X130.829 Y84.047 E.01468
G1 X125.899 Y79.117 E.21957
G1 X125.43 Y79.184 E.01492
G1 X130.753 Y84.507 E.23708
G1 X130.677 Y84.966 E.01465
G1 X124.961 Y79.251 E.25456
G1 X124.492 Y79.317 E.01492
G1 X130.601 Y85.426 E.27208
G1 X130.525 Y85.886 E.01468
G1 X124.023 Y79.384 E.28959
G1 X123.554 Y79.451 E.01492
G1 X130.449 Y86.345 E.30707
G1 X130.373 Y86.805 E.01468
G1 X123.085 Y79.517 E.32459
G1 X122.616 Y79.584 E.01492
G1 X130.297 Y87.265 E.3421
G1 X130.221 Y87.724 E.01465
G1 X122.147 Y79.651 E.35958
G1 X121.678 Y79.717 E.01492
M73 P0 R74
G1 X130.145 Y88.184 E.37711
G1 X130.069 Y88.644 E.01468
M73 Q1 S74
G1 X121.209 Y79.784 E.39461
G1 X120.74 Y79.851 E.01492
M73 P1 R74
G1 X129.993 Y89.104 E.41211
G1 X129.917 Y89.563 E.01465
G1 X120.271 Y79.917 E.42962
G1 X119.802 Y79.984 E.01492
G1 X129.841 Y90.023 E.44712
G1 X129.766 Y90.483 E.01468
G1 X119.333 Y80.051 E.46464
G1 X118.864 Y80.117 E.01492
G1 X129.69 Y90.942 E.48215
G1 X129.614 Y91.402 E.01468
G1 X118.396 Y80.184 E.49963
G1 X117.927 Y80.251 E.01492
G1 X129.538 Y91.862 E.51713
G1 X129.462 Y92.321 E.01465
G1 X117.458 Y80.317 E.53464
G1 X116.989 Y80.384 E.01492
G1 X129.386 Y92.781 E.55214
G1 X129.31 Y93.241 E.01468
G1 X116.52 Y80.451 E.56964
G1 X116.051 Y80.517 E.01492
G1 X129.234 Y93.7 E.58715
G1 X129.158 Y94.16 E.01468
G1 X115.582 Y80.584 E.60465
G1 X115.113 Y80.65 E.01492
G1 X129.082 Y94.62 E.62218
G1 X129.006 Y95.08 E.01468
G1 X114.644 Y80.717 E.63968
G1 X114.175 Y80.784 E.01492
G1 X128.93 Y95.539 E.65716
G1 X128.854 Y95.999 E.01468
G1 X113.706 Y80.85 E.67469
G1 X113.237 Y80.917 E.01492
G1 X128.778 Y96.459 E.69219
G1 X128.702 Y96.918 E.01465
G1 X112.768 Y80.984 E.70967
G1 X112.299 Y81.05 E.01492
G1 X128.626 Y97.378 E.7272
G1 X128.55 Y97.838 E.01468
G1 X111.83 Y81.117 E.7447
G1 X111.361 Y81.184 E.01492
G1 X128.475 Y98.297 E.7622
G1 X128.399 Y98.757 E.01468
G1 X110.892 Y81.25 E.77973
G1 X110.423 Y81.317 E.01492
G1 X128.323 Y99.217 E.79723
G1 X128.247 Y99.676 E.01465
G1 X109.954 Y81.384 E.81472
G1 X109.485 Y81.45 E.01492
G1 X128.171 Y100.136 E.83224
G1 X128.095 Y100.596 E.01468
G1 X109.483 Y81.984 E.82895
G1 X109.572 Y82.609 E.01988
G1 X128.019 Y101.056 E.8216
G1 X127.943 Y101.515 E.01465
G1 X109.661 Y83.233 E.81425
G1 X109.75 Y83.858 E.01988
G1 X127.867 Y101.975 E.8069
G1 X127.791 Y102.435 E.01468
G1 X109.838 Y84.482 E.79959
G1 X109.927 Y85.106 E.01985
G1 X127.715 Y102.894 E.79225
G1 X127.639 Y103.354 E.01468
G1 X110.016 Y85.731 E.7849
G1 X110.105 Y86.355 E.01985
G1 X127.563 Y103.814 E.77757
G1 X127.487 Y104.273 E.01465
G1 X110.193 Y86.979 E.77024
G1 X110.282 Y87.604 E.01988
G1 X127.411 Y104.733 E.7629
G1 X127.335 Y105.193 E.01468
G1 X110.371 Y88.228 E.75557
G1 X110.46 Y88.853 E.01988
G1 X127.259 Y105.653 E.74822
G1 X127.184 Y106.112 E.01465
G1 X110.548 Y89.477 E.74092
G1 X110.637 Y90.101 E.01985
G1 X127.108 Y106.572 E.73359
G1 X127.032 Y107.032 E.01468
G1 X110.726 Y90.726 E.72624
G1 X110.815 Y91.35 E.01985
M73 Q2 S74
G1 X126.956 Y107.491 E.71889
G1 X126.88 Y107.951 E.01468
M73 P2 R74
G1 X110.903 Y91.974 E.71159
G1 X110.992 Y92.599 E.01988
G1 X126.804 Y108.411 E.70424
G1 X126.728 Y108.87 E.01465
G1 X111.081 Y93.223 E.69689
G1 X111.169 Y93.848 E.01988
M73 Q2 S73
G1 X126.652 Y109.33 E.68956
G1 X126.576 Y109.79 E.01468
G1 X111.258 Y94.472 E.68224
G1 X111.347 Y95.096 E.01985
G1 X126.5 Y110.249 E.67489
G1 X126.424 Y110.709 E.01468
G1 X111.436 Y95.721 E.66754
G1 X111.524 Y96.345 E.01985
G1 X126.348 Y111.169 E.66023
G1 X126.272 Y111.629 E.01468
G1 X111.613 Y96.97 E.65289
G1 X111.702 Y97.594 E.01985
G1 X126.196 Y112.088 E.64554
G1 X126.12 Y112.548 E.01468
G1 X111.791 Y98.218 E.63821
G1 X111.879 Y98.843 E.01988
G1 X126.044 Y113.008 E.63088
G1 X125.968 Y113.467 E.01465
M73 P2 R73
G1 X111.968 Y99.467 E.62354
G1 X112.057 Y100.091 E.01985
G1 X125.893 Y113.927 E.61623
G1 X125.817 Y114.387 E.01468
G1 X112.146 Y100.716 E.60888
G1 X112.234 Y101.34 E.01985
G1 X125.741 Y114.846 E.60156
G1 X125.665 Y115.306 E.01468
G1 X112.323 Y101.965 E.59421
G1 X112.412 Y102.589 E.01985
G1 X125.589 Y115.766 E.58688
G1 X125.513 Y116.225 E.01465
G1 X112.501 Y103.213 E.57953
G1 X112.589 Y103.838 E.01988
G1 X125.437 Y116.685 E.5722
G1 X125.361 Y117.145 E.01468
G1 X112.678 Y104.462 E.56488
G1 X112.767 Y105.086 E.01985
G1 X125.285 Y117.605 E.55755
G1 X125.209 Y118.064 E.01465
G1 X112.856 Y105.711 E.55018
G1 X112.944 Y106.335 E.01985
G1 X125.133 Y118.524 E.54288
G1 X125.057 Y118.984 E.01468
G1 X113.033 Y106.96 E.53553
G1 X113.122 Y107.584 E.01985
G1 X124.981 Y119.443 E.52818
G1 X124.905 Y119.903 E.01468
G1 X113.211 Y108.208 E.52085
G1 X113.299 Y108.833 E.01988
G1 X124.829 Y120.363 E.51353
G1 X124.753 Y120.822 E.01465
G1 X113.388 Y109.457 E.50618
G1 X113.477 Y110.081 E.01985
G1 X124.677 Y121.282 E.49885
G1 X124.602 Y121.742 E.01468
G1 X113.566 Y110.706 E.49152
G1 X113.654 Y111.33 E.01985
G1 X124.526 Y122.201 E.4842
G1 X124.45 Y122.661 E.01468
G1 X113.743 Y111.955 E.47685
G1 X113.832 Y112.579 E.01985
G1 X124.374 Y123.121 E.46952
G1 X124.298 Y123.581 E.01468
G1 X113.921 Y113.203 E.4622
G1 X114.009 Y113.828 E.01988
G1 X124.222 Y124.04 E.45485
G1 X124.146 Y124.5 E.01468
G1 X114.098 Y114.452 E.44752
G1 X114.187 Y115.077 E.01988
G1 X124.07 Y124.96 E.44017
G1 X123.994 Y125.419 E.01465
G1 X114.276 Y115.701 E.43282
G1 X114.364 Y116.325 E.01985
G1 X123.918 Y125.879 E.42552
G1 X123.842 Y126.339 E.01468
G1 X114.453 Y116.95 E.41817
G1 X114.542 Y117.574 E.01985
G1 X123.766 Y126.798 E.41082
G1 X123.69 Y127.258 E.01468
G1 X114.631 Y118.198 E.40349
G1 X114.719 Y118.823 E.01988
G1 X123.614 Y127.718 E.39617
G1 X123.538 Y128.177 E.01465
G1 X114.808 Y119.447 E.38882
G1 X114.897 Y120.072 E.01988
G1 X123.462 Y128.637 E.38147
G1 X123.386 Y129.097 E.01468
G1 X114.985 Y120.696 E.37417
G1 X115.074 Y121.32 E.01985
G1 X123.311 Y129.557 E.36686
G1 X123.235 Y130.016 E.01465
G1 X115.163 Y121.945 E.35949
G1 X115.252 Y122.569 E.01985
G1 X123.159 Y130.476 E.35216
G1 X123.083 Y130.936 E.01468
M73 Q3 S73
G1 X115.34 Y123.193 E.34486
G1 X115.429 Y123.818 E.01988
G1 X122.694 Y131.083 E.32357
G1 X122.225 Y131.149 E.01492
M73 P3 R73
G1 X115.518 Y124.442 E.29872
G1 X115.607 Y125.067 E.01988
G1 X121.756 Y131.216 E.27387
G1 X121.287 Y131.283 E.01492
G1 X115.695 Y125.691 E.24906
G1 X115.784 Y126.315 E.01985
G1 X120.818 Y131.349 E.22421
G1 X120.349 Y131.416 E.01492
G1 X115.873 Y126.94 E.19935
G1 X115.962 Y127.564 E.01985
G1 X119.88 Y131.483 E.17452
G1 X119.411 Y131.549 E.01492
G1 X116.05 Y128.188 E.14969
G1 X116.139 Y128.813 E.01988
G1 X118.942 Y131.616 E.12484
G1 X118.473 Y131.682 E.01492
G1 X116.213 Y129.423 E.10063
G1 X116.213 Y129.584 E.00507
G1 X116.12 Y129.865 E.00932
G1 X118.004 Y131.749 E.08391
G1 X117.535 Y131.816 E.01492
G1 X115.877 Y130.158 E.07384
G1 X115.596 Y130.315 E.01014
G1 X115.511 Y130.327 E.0027
G1 X117.066 Y131.882 E.06926
G1 X116.597 Y131.949 E.01492
G1 X115.043 Y130.395 E.06921
G1 X114.575 Y130.462 E.01489
G1 X116.128 Y132.016 E.06919
G1 X115.659 Y132.082 E.01492
G1 X114.107 Y130.53 E.06912
G1 X113.638 Y130.597 E.01492
G1 X115.19 Y132.149 E.06912
G1 X114.721 Y132.216 E.01492
G1 X113.17 Y130.664 E.0691
G1 X112.702 Y130.732 E.01489
G1 X114.252 Y132.282 E.06903
G1 X113.783 Y132.349 E.01492
G1 X112.234 Y130.799 E.06901
G1 X111.765 Y130.867 E.01492
G1 X113.314 Y132.416 E.06899
G1 X112.845 Y132.482 E.01492
G1 X111.297 Y130.934 E.06895
G1 X110.829 Y131.001 E.01489
G1 X112.376 Y132.549 E.06892
G1 X111.907 Y132.616 E.01492
G1 X110.361 Y131.069 E.06888
G1 X109.892 Y131.136 E.01492
G1 X111.439 Y132.682 E.06888
G1 X110.97 Y132.749 E.01492
G1 X109.424 Y131.204 E.06883
G1 X109.409 Y131.206 E.00048
G1 X109.495 Y131.81 E.01921
G1 X110.501 Y132.816 E.04481
G1 X110.032 Y132.882 E.01492
G1 X109.384 Y132.235 E.02884
M204 S1000
; stop printing object gpu-bracket-5.stl id:0 copy 0
M106 S84.15
;LAYER_CHANGE
;Z:0.4
;HEIGHT:0.2
;BEFORE_LAYER_CHANGE
G92 E0.0
;0.4


;WIPE_START
G1 F8640
G1 X110.032 Y132.882 E-.21144
G1 X110.501 Y132.816 E-.10936
G1 X109.495 Y131.81 E-.32851
G1 X109.409 Y131.206 E-.14087
G1 X109.424 Y131.204 E-.00349
G1 X109.443 Y131.223 E-.00633
;WIPE_END
G1 Z.6 F720
;AFTER_LAYER_CHANGE
;0.4
M104 S210 ; set temperature
G1 X105.956 Y131.7 F10800
G1 Z.4 F720
G1 E.8 F2100
;TYPE:Skirt/Brim
;WIDTH:0.42
G1 F3000
G1 X105.758 Y130.249 E.04592
G1 X105.758 Y80.504 E1.55972
G1 X106.15 Y79.197 E.04278
G1 X107.801 Y78.151 E.06128
G1 X140.967 Y73.437 E1.05035
G1 X142.317 Y73.641 E.04281
G1 X143.331 Y74.553 E.04276
G1 X143.655 Y75.456 E.03008
G1 X144.218 Y79.416 E.12541
G1 X144.115 Y80.518 E.0347
G1 X126.294 Y132.795 E1.73173
G1 X125.501 Y133.906 E.0428
G1 X124.378 Y134.382 E.03824
G1 X109.033 Y136.563 E.48597
G1 X107.683 Y136.359 E.04281
G1 X106.669 Y135.447 E.04276
G1 X106.345 Y134.544 E.03008
G1 X105.964 Y131.759 E.08814
; printing object gpu-bracket-5.stl id:0 copy 0
;WIPE_START
G1 F8640
G1 X105.758 Y130.249 E-.35189
G1 X105.758 Y128.308 E-.44811
;WIPE_END
G1 Z.8 F720
G1 X115.546 Y129.677 F10800
G1 Z.4 F720
G1 E.8 F2100
M204 S800
;TYPE:Perimeter
;WIDTH:0.449999
G1 F3600
G1 X115.664 Y129.491 E.00746
G1 X115.694 Y129.197 E.01
G1 X108.85 Y81.041 E1.6464
G1 X140.765 Y76.505 E1.09114
G1 X141.15 Y79.214 E.09262
G1 X132.355 Y80.464 E.30069
G1 X132.252 Y80.488 E.00358
G1 X131.984 Y80.663 E.01083
G1 X131.838 Y80.969 E.01148
G1 X123.496 Y131.468 E1.73249
G1 X109.235 Y133.495 E.48757
G1 X108.85 Y130.786 E.09262
G1 X115.176 Y129.887 E.21628
G1 X115.279 Y129.863 E.00358
G1 X115.496 Y129.712 E.00895
M204 S1000
G1 X115.25 Y129.409 F10800
M204 S800
;TYPE:External perimeter
G1 F2100

G1 X115.291 Y129.254 E.00543
G1 F2099.996
G1 X115.228 Y128.809 E.01521
G1 X108.453 Y81.141 E1.62972
G1 F2100
G1 X108.39 Y80.696 E.01521
G1 X108.835 Y80.632 E.01522
G1 X140.665 Y76.108 E1.08823
G1 F2099.996
G1 X141.111 Y76.045 E.01525
G1 X141.61 Y79.559 E.12014
G1 X141.165 Y79.623 E.01522
G1 X132.857 Y80.804 E.28404
G1 X132.412 Y80.867 E.01521
G1 F2100
G1 X132.342 Y80.89 E.00249
G1 X132.24 Y81.035 E.006
G1 F2099.995
G1 X132.167 Y81.479 E.01523
G1 X123.922 Y131.385 E1.71215
G1 X123.849 Y131.829 E.01523
M73 Q3 S72
G1 X123.403 Y131.892 E.01525
G1 F2100
G1 X109.335 Y133.892 E.48097
G1 X108.889 Y133.955 E.01525
G1 X108.39 Y130.441 E.12014
G1 X115.118 Y129.484 E.23003
G1 F2065.954
G1 X115.198 Y129.439 E.00311

M204 S1000
G1 X115.409 Y129.429 F10800
;WIPE_START
G1 F8640
G1 X115.291 Y129.254 E-.04781
G1 X114.833 Y126.029 E-.75219
;WIPE_END
G1 Z.8 F720
G1 X109.383 Y81.379 F10800
G1 Z.4 F720
G1 E.8 F2100
;TYPE:Solid infill
;WIDTH:0.55173
G1 F8844.166
G1 X109.338 Y81.334 E.00269
G1 X109.277 Y81.351 E.00268
G1 X109.26 Y81.412 E.00268
G1 X109.305 Y81.457 E.00269
G1 X109.367 Y81.441 E.00271
;WIDTH:0.449999
G1 F11054.364
G1 X109.357 Y82.008 E.0192
G1 X110.137 Y81.228 E.03734
G1 X110.808 Y81.133 E.02294
G1 X109.429 Y82.512 E.06601
G1 X109.501 Y83.016 E.01723
G1 X111.479 Y81.038 E.09469
G1 X112.15 Y80.942 E.02294
