; generated by PrusaSlicer 2.7.1+MacOS-arm64 on 2024-01-12 at 23:31:36 UTC


;
;
; 

; external perimeters extrusion width = 0.45mm
; perimeters extrusion width = 0.45mm
; infill extrusion width = 0.45mm
; solid infill extrusion width = 0.45mm
; top infill extrusion width = 0.40mm
; first layer extrusion width = 0.42mm

M73 P0 R93
M73 Q0 S93
M201 X1000 Y1000 Z200 E5000 ; sets maximum accelerations, mm/sec^2
M203 X200 Y200 Z12 E120 ; sets maximum feedrates, mm / sec
M204 S1250 T1250 ; sets acceleration (S) and retract acceleration (R), mm/sec^2
M205 X8.00 Y8.00 Z0.40 E4.50 ; sets the jerk limits, mm/sec
M205 S0 T0 ; sets the minimum extruding and travel feed rate, mm/sec

; printing object razer-4k-holder.stl id:0 copy 0
; stop printing object razer-4k-holder.stl id:0 copy 0

;TYPE:Custom
M862.3 P "MK3S" ; printer model check
M862.1 P0.4 ; nozzle diameter check
M115 U3.13.2 ; tell printer latest fw version
G90 ; use absolute coordinates
M83 ; extruder relative mode
M104 S215 ; set extruder temp
M140 S60 ; set bed temp
M190 S60 ; wait for bed temp
M109 S215 ; wait for extruder temp
G28 W ; home all without mesh bed level
G80 X82.1407 Y88.4644 W85.7649 H33.0712 ; mesh bed levelling

G1 Z0.2 F720
G1 Y-3 F1000 ; go outside print area
G92 E0
G1 X60 E9 F1000 ; intro line
G1 X100 E12.5 F1000 ; intro line

G92 E0
M221 S95

; Don't change E values below. Excessive value can damage the printer.
M907 E430 ; set extruder motor current
G21 ; set units to millimeters
G90 ; use absolute coordinates
M83 ; use relative distances for extrusion
M900 K0.05 ; Filament gcode LA 1.5
M900 K30 ; Filament gcode LA 1.0

M107
;LAYER_CHANGE
;Z:0.2
;HEIGHT:0.2
;BEFORE_LAYER_CHANGE
G92 E0.0
;0.2


G1 E-.8 F2100
G1 Z.2 F720
;AFTER_LAYER_CHANGE
;0.2
G1 X85.659 Y89.369 F10800
G1 Z.2 F720
G1 E.8 F2100
M204 S800
;TYPE:Skirt/Brim
;WIDTH:0.42
G1 F1200
G1 X87.359 Y88.653 E.05784
G1 X165.34 Y88.653 E2.44504
G1 X166.647 Y89.045 E.04278
M73 P0 R92
G1 X167.523 Y90.09 E.04275
G1 X167.717 Y91.03 E.03009
G1 X167.717 Y118.97 E.87604
G1 X167.325 Y120.277 E.04278
G1 X166.28 Y121.153 E.04275
G1 X165.34 Y121.347 E.03009
G1 X87.359 Y121.347 E2.44504
G1 X86.052 Y120.955 E.04278
G1 X85.025 Y119.42 E.05791
G1 X82.326 Y105.408 E.44741
G1 X82.326 Y104.506 E.02828
G1 X85.026 Y90.578 E.44483
G1 X85.631 Y89.422 E.04091
M204 S1000
; printing object razer-4k-holder.stl id:0 copy 0
;WIPE_START
G1 F8640
G1 X85.659 Y89.369 E-.01384
G1 X87.359 Y88.653 E-.42593
G1 X88.919 Y88.653 E-.36023
;WIPE_END
G1 Z.6 F720
G1 X88.008 Y91.817 F10800
G1 Z.2 F720
G1 E.8 F2100
M204 S800
;TYPE:Perimeter
;WIDTH:0.419999
G1 F1200
G1 X164.553 Y91.817 E2.40001
G1 X164.553 Y97.176 E.16803
G1 X164.553 Y118.183 E.65866
G1 X88.009 Y118.183 E2.39998
G1 X85.462 Y104.959 E.42225
G1 X87.997 Y91.876 E.41784
M204 S1000
G1 X87.697 Y91.44 F10800
M204 S800
;TYPE:External perimeter
G1 F1200
G1 X164.93 Y91.44 E2.42158
G1 X164.93 Y97.176 E.17985
G1 X164.93 Y118.56 E.67048
G1 X87.698 Y118.56 E2.42155
G1 X85.078 Y104.958 E.43432
G1 X87.686 Y91.499 E.42985
M204 S1000
;WIPE_START
G1 F8640
G1 X87.697 Y91.44 E-.01386
G1 X91.102 Y91.44 E-.78614
;WIPE_END
G1 Z.6 F720
G1 X149.685 Y106.588 F10800
G1 Z.2 F720
G1 E.8 F2100
M204 S800
;TYPE:Perimeter
G1 F1200
G1 X149.659 Y106.526 E.00211
G1 X149.38 Y105.111 E.04522
G1 X149.379 Y104.896 E.00674
G1 X149.645 Y103.492 E.0448
G1 X149.715 Y103.337 E.00533
G1 X150.523 Y102.086 E.04669
G1 X150.682 Y101.924 E.00712
G1 X151.928 Y101.085 E.0471
G1 X152.134 Y100.999 E.007
G1 X153.549 Y100.72 E.04522
G1 X153.764 Y100.719 E.00674
G1 X155.12 Y100.974 E.04326
G1 X155.323 Y101.055 E.00685
G1 X156.574 Y101.863 E.04669
G1 X156.736 Y102.022 E.00712
G1 X157.575 Y103.268 E.0471
G1 X157.661 Y103.474 E.007
G1 X157.94 Y104.889 E.04522
G1 X157.941 Y105.104 E.00674
G1 X157.686 Y106.46 E.04326
G1 X157.605 Y106.663 E.00685
G1 X156.797 Y107.914 E.04669
G1 X156.638 Y108.076 E.00712
G1 X155.392 Y108.915 E.0471
G1 X155.186 Y109.001 E.007
G1 X153.771 Y109.28 E.04522
G1 X153.556 Y109.281 E.00674
G1 X152.2 Y109.026 E.04326
G1 X151.997 Y108.945 E.00685
G1 X150.746 Y108.137 E.04669
G1 X150.584 Y107.978 E.00712
G1 X149.745 Y106.732 E.0471
G1 X149.708 Y106.643 E.00302
M204 S1000
G1 X150.023 Y106.421 F10800
M204 S800
;TYPE:External perimeter
G1 F1200
G1 X149.749 Y105.038 E.04421
G1 X149.749 Y104.966 E.00226
G1 X150.008 Y103.593 E.04381
G1 X150.84 Y102.29 E.04847
G1 X150.893 Y102.236 E.00237
G1 X152.138 Y101.397 E.04707
G1 X152.207 Y101.369 E.00233
G1 X153.622 Y101.089 E.04523
G1 X153.694 Y101.089 E.00226
G1 X155.051 Y101.344 E.04329
G1 X155.118 Y101.371 E.00226
G1 X156.37 Y102.18 E.04674
G1 X156.424 Y102.233 E.00237
G1 X157.263 Y103.478 E.04707
G1 X157.291 Y103.547 E.00233
G1 X157.57 Y104.962 E.04522
G1 X157.571 Y105.034 E.00226
G1 X157.316 Y106.391 E.04329
G1 X157.289 Y106.458 E.00226
G1 X156.48 Y107.71 E.04674
G1 X155.182 Y108.603 E.0494
G1 X155.113 Y108.631 E.00233
G1 X153.697 Y108.911 E.04526
G1 X153.626 Y108.911 E.00223
G1 X152.269 Y108.656 E.04329
G1 X152.202 Y108.629 E.00226
G1 X150.95 Y107.82 E.04674
G1 X150.896 Y107.767 E.00237
G1 X150.057 Y106.522 E.04707
G1 X150.039 Y106.478 E.00149
M204 S1000
;WIPE_START
G1 F8640
G1 X150.023 Y106.421 E-.01367
G1 X149.749 Y105.038 E-.32555
G1 X149.749 Y104.966 E-.01662
G1 X150.008 Y103.593 E-.32262
G1 X150.291 Y103.15 E-.12154
;WIPE_END
G1 Z.6 F720
G1 X87.571 Y102.037 F10800
G1 Z.2 F720
G1 E.8 F2100
M204 S800
;TYPE:Perimeter
G1 F1200
G1 X87.682 Y101.924 E.00497
G1 X88.928 Y101.085 E.0471
G1 X89.134 Y100.999 E.007
G1 X90.549 Y100.72 E.04522
G1 X90.889 Y100.742 E.01068
G1 X92.12 Y100.974 E.03928
G1 X92.323 Y101.055 E.00685
G1 X93.574 Y101.863 E.04669
G1 X93.736 Y102.022 E.00712
G1 X94.575 Y103.268 E.0471
G1 X94.661 Y103.474 E.007
G1 X94.94 Y104.889 E.04522
G1 X94.941 Y105.104 E.00674
G1 X94.686 Y106.46 E.04326
G1 X94.605 Y106.663 E.00685
G1 X93.797 Y107.914 E.04669
G1 X93.638 Y108.076 E.00712
G1 X92.392 Y108.915 E.0471
G1 X92.186 Y109.001 E.007
G1 X90.771 Y109.28 E.04522
G1 X90.556 Y109.281 E.00674
G1 X89.2 Y109.026 E.04326
G1 X88.997 Y108.945 E.00685
G1 X87.746 Y108.137 E.04669
G1 X87.584 Y107.978 E.00712
G1 X86.745 Y106.732 E.0471
G1 X86.659 Y106.526 E.007
G1 X86.379 Y105.108 E.04532
G1 X86.379 Y104.896 E.00665
G1 X86.634 Y103.54 E.04326
G1 X86.715 Y103.337 E.00685
G1 X87.523 Y102.086 E.04669
G1 X87.529 Y102.08 E.00027
M204 S1000
G1 X87.822 Y102.318 F10800
M204 S800
;TYPE:External perimeter
G1 F1200
G1 X87.84 Y102.29 E.00104
G1 X87.893 Y102.236 E.00237
G1 X89.138 Y101.397 E.04707
G1 X89.207 Y101.369 E.00233
G1 X90.622 Y101.089 E.04523
G1 X92.051 Y101.344 E.04551
G1 X92.118 Y101.371 E.00226
G1 X93.37 Y102.18 E.04674
G1 X93.424 Y102.233 E.00237
G1 X94.263 Y103.478 E.04707
G1 X94.291 Y103.547 E.00233
G1 X94.57 Y104.962 E.04522
G1 X94.571 Y105.034 E.00226
G1 X94.316 Y106.391 E.04329
G1 X94.289 Y106.458 E.00226
G1 X93.48 Y107.71 E.04674
G1 X93.427 Y107.764 E.00237
G1 X92.182 Y108.603 E.04707
G1 X92.113 Y108.631 E.00233
G1 X90.697 Y108.911 E.04526
G1 X90.626 Y108.911 E.00223
G1 X89.269 Y108.656 E.04329
G1 X89.202 Y108.629 E.00226
G1 X87.95 Y107.82 E.04674
G1 X87.896 Y107.767 E.00237
G1 X87.057 Y106.522 E.04707
G1 X87.029 Y106.453 E.00233
G1 X86.749 Y105.037 E.04526
G1 X86.749 Y104.966 E.00223
G1 X87.004 Y103.609 E.04329
G1 X87.031 Y103.542 E.00226
G1 X87.789 Y102.368 E.04382
M204 S1000
;WIPE_START
G1 F8640
G1 X87.822 Y102.318 E-.01383
G1 X87.84 Y102.29 E-.00769
G1 X87.893 Y102.236 E-.01747
G1 X89.138 Y101.397 E-.34666
G1 X89.207 Y101.369 E-.01719
G1 X90.622 Y101.089 E-.33306
G1 X90.895 Y101.138 E-.0641
;WIPE_END
G1 Z.6 F720
G1 X163.617 Y91.987 F10800
G1 Z.2 F720
G1 E.8 F2100
M204 S800
;TYPE:Solid infill
;WIDTH:0.421768
G1 F1200
G1 X164.214 Y92.583 E.02657
G1 X164.214 Y93.119 E.01688
G1 X163.251 Y92.156 E.0429
G1 X162.715 Y92.156 E.01688
G1 X164.214 Y93.655 E.06678
G1 X164.214 Y94.19 E.01685
G1 X162.18 Y92.156 E.09061
G1 X161.644 Y92.156 E.01688
G1 X164.214 Y94.726 E.11449
G1 X164.214 Y95.262 E.01688
G1 X161.108 Y92.156 E.13837
G1 X160.572 Y92.156 E.01688
G1 X164.214 Y95.798 E.16225
G1 X164.214 Y96.334 E.01688
G1 X160.036 Y92.156 E.18613
G1 X159.501 Y92.156 E.01685
G1 X164.214 Y96.869 E.20996
G1 X164.214 Y97.405 E.01688
G1 X158.965 Y92.156 E.23384
G1 X158.429 Y92.156 E.01688
G1 X164.214 Y97.941 E.25772
G1 X164.214 Y98.477 E.01688
G1 X157.893 Y92.156 E.2816
G1 X157.358 Y92.156 E.01685
G1 X164.214 Y99.012 E.30543
G1 X164.214 Y99.548 E.01688
G1 X156.822 Y92.156 E.32931
G1 X156.286 Y92.156 E.01688
G1 X164.214 Y100.084 E.35319
G1 X164.214 Y100.62 E.01688
G1 X155.75 Y92.156 E.37707
G1 X155.215 Y92.156 E.01685
G1 X164.214 Y101.155 E.4009
G1 X164.214 Y101.691 E.01688
G1 X154.679 Y92.156 E.42478
G1 X154.143 Y92.156 E.01688
G1 X164.214 Y102.227 E.44866
G1 X164.214 Y102.763 E.01688
M73 Q0 S92
G1 X153.607 Y92.156 E.47254
G1 X153.071 Y92.156 E.01688
M73 P1 R92
M73 Q1 S92
G1 X164.214 Y103.299 E.49642
G1 X164.214 Y103.834 E.01685
G1 X152.536 Y92.156 E.52025
G1 X152 Y92.156 E.01688
G1 X164.214 Y104.37 E.54413
G1 X164.214 Y104.906 E.01688
G1 X151.464 Y92.156 E.56801
G1 X150.928 Y92.156 E.01688
G1 X164.214 Y105.442 E.59189
G1 X164.214 Y105.977 E.01685
G1 X150.393 Y92.156 E.61572
G1 X149.857 Y92.156 E.01688
G1 X164.214 Y106.513 E.6396
G1 X164.214 Y107.049 E.01688
G1 X149.321 Y92.156 E.66348
G1 X148.785 Y92.156 E.01688
G1 X164.214 Y107.585 E.68736
G1 X164.214 Y108.12 E.01685
G1 X148.25 Y92.156 E.71119
G1 X147.714 Y92.156 E.01688
G1 X164.214 Y108.656 E.73507
G1 X164.214 Y109.192 E.01688
G1 X147.178 Y92.156 E.75895
G1 X146.642 Y92.156 E.01688
G1 X155.114 Y100.628 E.37742
G1 X154.461 Y100.511 E.0209
G1 X146.106 Y92.156 E.37221
G1 X145.571 Y92.156 E.01685
M73 P1 R91
G1 X153.809 Y100.394 E.367
G1 X153.662 Y100.368 E.0047
G1 X153.302 Y100.423 E.01147
G1 X145.035 Y92.156 E.36829
G1 X144.499 Y92.156 E.01688
G1 X152.856 Y100.513 E.3723
G1 X152.41 Y100.603 E.01433
G1 X143.963 Y92.156 E.37631
G1 X143.428 Y92.156 E.01685
G1 X151.965 Y100.694 E.38034
G1 X151.746 Y100.798 E.00764
G1 X151.619 Y100.884 E.00483
G1 X142.892 Y92.156 E.38881
G1 X142.356 Y92.156 E.01688
G1 X151.3 Y101.101 E.39847
G1 X150.982 Y101.318 E.01213
G1 X141.82 Y92.156 E.40816
G1 X141.284 Y92.156 E.01688
G1 X150.663 Y101.535 E.41783
G1 X150.391 Y101.72 E.01036
G1 X150.355 Y101.762 E.00174
G1 X140.749 Y92.156 E.42794
G1 X140.213 Y92.156 E.01688
G1 X150.128 Y102.072 E.44173
G1 X149.918 Y102.397 E.01219
G1 X139.677 Y92.156 E.45623
G1 X139.141 Y92.156 E.01688
G1 X149.708 Y102.723 E.47076
G1 X149.497 Y103.048 E.01221
G1 X138.606 Y92.156 E.48521
G1 X138.07 Y92.156 E.01688
G1 X149.325 Y103.411 E.50141
G1 X149.237 Y103.859 E.01438
G1 X137.534 Y92.156 E.52136
G1 X136.998 Y92.156 E.01688
G1 X149.149 Y104.307 E.54132
G1 X149.061 Y104.755 E.01438
G1 X136.463 Y92.156 E.56126
G1 X135.927 Y92.156 E.01688
G1 X149.073 Y105.302 E.58565
G1 X149.211 Y105.977 E.0217
G1 X135.391 Y92.156 E.6157
G1 X134.855 Y92.156 E.01688
G1 X149.769 Y107.07 E.66441
M204 S1000
;WIPE_START
G1 F8640
G1 X147.319 Y104.62 E-.8
;WIPE_END
G1 Z.6 F720
G1 X157.783 Y103.298 F10800
G1 Z.2 F720
G1 E.8 F2100
M204 S800
G1 F1200
G1 X164.214 Y109.728 E.28648
G1 X164.214 Y110.264 E.01688
G1 X158.15 Y104.2 E.27015
G1 X158.278 Y104.864 E.0213
G1 X164.214 Y110.799 E.26442
G1 X164.214 Y111.335 E.01688
G1 X158.23 Y105.351 E.26658
G1 X158.148 Y105.806 E.01456
G1 X164.214 Y111.871 E.27022
G1 X164.214 Y112.407 E.01688
G1 X158.067 Y106.26 E.27385
G1 X157.969 Y106.698 E.01414
G1 X164.214 Y112.942 E.27819
G1 X164.214 Y113.478 E.01688
G1 X157.762 Y107.026 E.28743
G1 X157.554 Y107.354 E.01223
G1 X164.214 Y114.014 E.2967
G1 X164.214 Y114.55 E.01688
G1 X157.346 Y107.682 E.30597
G1 X157.138 Y108.01 E.01223
G1 X164.214 Y115.086 E.31523
G1 X164.214 Y115.621 E.01685
G1 X156.896 Y108.304 E.32599
G1 X156.577 Y108.521 E.01215
G1 X164.214 Y116.157 E.3402
G1 X164.214 Y116.693 E.01688
G1 X156.258 Y108.738 E.35441
G1 X155.939 Y108.954 E.01214
G1 X164.214 Y117.229 E.36865
G1 X164.214 Y117.764 E.01685
G1 X155.62 Y109.171 E.38284
G1 X155.371 Y109.303 E.00888
G1 X155.243 Y109.329 E.00411
G1 X163.757 Y117.844 E.37932
G1 X163.221 Y117.844 E.01688
G1 X154.797 Y109.419 E.37531
G1 X154.351 Y109.509 E.01433
G1 X162.685 Y117.844 E.3713
G1 X162.15 Y117.844 E.01685
G1 X153.905 Y109.599 E.36731
G1 X153.655 Y109.632 E.00794
G1 X153.347 Y109.577 E.00986
G1 X161.614 Y117.844 E.36829
G1 X161.078 Y117.844 E.01688
G1 X152.694 Y109.46 E.3735
G1 X152.128 Y109.358 E.01812
G1 X152.022 Y109.323 E.00352
G1 X160.542 Y117.844 E.37959
G1 X160.007 Y117.844 E.01685
G1 X134.319 Y92.156 E1.14439
G1 X133.784 Y92.156 E.01685
G1 X159.471 Y117.844 E1.14437
G1 X158.935 Y117.844 E.01688
G1 X133.248 Y92.156 E1.14437
G1 X132.712 Y92.156 E.01688
G1 X158.399 Y117.844 E1.14437
G1 X157.863 Y117.844 E.01688
G1 X132.176 Y92.156 E1.14437
G1 X131.641 Y92.156 E.01685
G1 X157.328 Y117.844 E1.14437
G1 X156.792 Y117.844 E.01688
G1 X131.105 Y92.156 E1.14437
G1 X130.569 Y92.156 E.01688
M73 P2 R91
M73 Q2 S92
G1 X156.256 Y117.844 E1.14437
G1 X155.72 Y117.844 E.01688
G1 X130.033 Y92.156 E1.14437
G1 X129.497 Y92.156 E.01688
M73 Q2 S91
G1 X155.185 Y117.844 E1.14439
G1 X154.649 Y117.844 E.01688
G1 X128.962 Y92.156 E1.14437
G1 X128.426 Y92.156 E.01688
G1 X154.113 Y117.844 E1.14437
G1 X153.577 Y117.844 E.01688
G1 X127.89 Y92.156 E1.14437
G1 X127.354 Y92.156 E.01688
G1 X153.041 Y117.844 E1.14437
G1 X152.506 Y117.844 E.01685
G1 X126.819 Y92.156 E1.14437
G1 X126.283 Y92.156 E.01688
G1 X151.97 Y117.844 E1.14437
G1 X151.434 Y117.844 E.01688
G1 X125.747 Y92.156 E1.14437
G1 X125.211 Y92.156 E.01688
M73 P2 R90
G1 X150.898 Y117.844 E1.14437
G1 X150.363 Y117.844 E.01685
G1 X124.676 Y92.156 E1.14437
G1 X124.14 Y92.156 E.01688
G1 X149.827 Y117.844 E1.14437
G1 X149.291 Y117.844 E.01688
G1 X123.604 Y92.156 E1.14437
G1 X123.068 Y92.156 E.01688
G1 X148.755 Y117.844 E1.14437
G1 X148.22 Y117.844 E.01685
G1 X122.532 Y92.156 E1.14439
G1 X121.997 Y92.156 E.01685
G1 X147.684 Y117.844 E1.14437
G1 X147.148 Y117.844 E.01688
G1 X121.461 Y92.156 E1.14437
G1 X120.925 Y92.156 E.01688
G1 X146.612 Y117.844 E1.14437
G1 X146.076 Y117.844 E.01688
G1 X120.389 Y92.156 E1.14437
G1 X119.854 Y92.156 E.01685
G1 X145.541 Y117.844 E1.14437
G1 X145.005 Y117.844 E.01688
G1 X119.318 Y92.156 E1.14437
G1 X118.782 Y92.156 E.01688
G1 X144.469 Y117.844 E1.14437
G1 X143.933 Y117.844 E.01688
G1 X118.246 Y92.156 E1.14437
G1 X117.711 Y92.156 E.01685
G1 X143.398 Y117.844 E1.14437
G1 X142.862 Y117.844 E.01688
G1 X117.175 Y92.156 E1.14437
G1 X116.639 Y92.156 E.01688
G1 X142.326 Y117.844 E1.14437
G1 X141.79 Y117.844 E.01688
G1 X116.103 Y92.156 E1.14437
G1 X115.567 Y92.156 E.01688
G1 X141.255 Y117.844 E1.14439
G1 X140.719 Y117.844 E.01688
G1 X115.032 Y92.156 E1.14437
G1 X114.496 Y92.156 E.01688
M73 P3 R90
G1 X140.183 Y117.844 E1.14437
G1 X139.647 Y117.844 E.01688
M73 Q3 S91
G1 X113.96 Y92.156 E1.14437
G1 X113.424 Y92.156 E.01688
G1 X139.111 Y117.844 E1.14437
G1 X138.576 Y117.844 E.01685
G1 X112.889 Y92.156 E1.14437
G1 X112.353 Y92.156 E.01688
M73 Q3 S90
G1 X138.04 Y117.844 E1.14437
G1 X137.504 Y117.844 E.01688
G1 X111.817 Y92.156 E1.14437
G1 X111.281 Y92.156 E.01688
G1 X136.968 Y117.844 E1.14437
G1 X136.433 Y117.844 E.01685
G1 X110.745 Y92.156 E1.14439
G1 X110.21 Y92.156 E.01685
G1 X135.897 Y117.844 E1.14437
G1 X135.361 Y117.844 E.01688
G1 X109.674 Y92.156 E1.14437
G1 X109.138 Y92.156 E.01688
G1 X134.825 Y117.844 E1.14437
G1 X134.289 Y117.844 E.01688
G1 X108.602 Y92.156 E1.14437
G1 X108.067 Y92.156 E.01685
M73 P3 R89
G1 X133.754 Y117.844 E1.14437
G1 X133.218 Y117.844 E.01688
G1 X107.531 Y92.156 E1.14437
G1 X106.995 Y92.156 E.01688
G1 X132.682 Y117.844 E1.14437
G1 X132.146 Y117.844 E.01688
G1 X106.459 Y92.156 E1.14437
G1 X105.924 Y92.156 E.01685
G1 X131.611 Y117.844 E1.14437
G1 X131.075 Y117.844 E.01688
G1 X105.388 Y92.156 E1.14437
G1 X104.852 Y92.156 E.01688
G1 X130.539 Y117.844 E1.14437
G1 X130.003 Y117.844 E.01688
G1 X104.316 Y92.156 E1.14437
G1 X103.78 Y92.156 E.01688
G1 X129.468 Y117.844 E1.14439
G1 X128.932 Y117.844 E.01688
G1 X103.245 Y92.156 E1.14437
G1 X102.709 Y92.156 E.01688
G1 X128.396 Y117.844 E1.14437
G1 X127.86 Y117.844 E.01688
G1 X102.173 Y92.156 E1.14437
G1 X101.637 Y92.156 E.01688
G1 X127.324 Y117.844 E1.14437
