; generated by PrusaSlicer 2.7.1+MacOS-arm64 on 2024-01-23 at 20:56:29 UTC


;
;
; 

; external perimeters extrusion width = 0.45mm
; perimeters extrusion width = 0.45mm
; infill extrusion width = 0.45mm
; solid infill extrusion width = 0.45mm
; top infill extrusion width = 0.40mm
; first layer extrusion width = 0.42mm

M73 P0 R129
M73 Q0 S131
M201 X1000 Y1000 Z200 E5000 ; sets maximum accelerations, mm/sec^2
M203 X200 Y200 Z12 E120 ; sets maximum feedrates, mm / sec
M204 S1250 T1250 ; sets acceleration (S) and retract acceleration (R), mm/sec^2
M205 X8.00 Y8.00 Z0.40 E4.50 ; sets the jerk limits, mm/sec
M205 S0 T0 ; sets the minimum extruding and travel feed rate, mm/sec

; printing object razer-4k-holder-3.1.stl id:0 copy 0
; stop printing object razer-4k-holder-3.1.stl id:0 copy 0

;TYPE:Custom
M862.3 P "MK3S" ; printer model check
M862.1 P0.4 ; nozzle diameter check
M115 U3.13.2 ; tell printer latest fw version
G90 ; use absolute coordinates
M83 ; extruder relative mode
M104 S215 ; set extruder temp
M140 S60 ; set bed temp
M190 S60 ; wait for bed temp
M109 S215 ; wait for extruder temp
G28 W ; home all without mesh bed level
G80 X79.2544 Y88.4644 W91.4912 H33.0712 ; mesh bed levelling

G1 Z0.2 F720
G1 Y-3 F1000 ; go outside print area
G92 E0
G1 X60 E9 F1000 ; intro line
G1 X100 E12.5 F1000 ; intro line

G92 E0
M221 S95

; Don't change E values below. Excessive value can damage the printer.
M907 E430 ; set extruder motor current
G21 ; set units to millimeters
G90 ; use absolute coordinates
M83 ; use relative distances for extrusion
M900 K0.05 ; Filament gcode LA 1.5
M900 K30 ; Filament gcode LA 1.0

M107
;LAYER_CHANGE
;Z:0.2
;HEIGHT:0.2
;BEFORE_LAYER_CHANGE
G92 E0.0
;0.2


G1 E-.8 F2100
G1 Z.2 F720
;AFTER_LAYER_CHANGE
;0.2
G1 X79.835 Y89.723 F10800
G1 Z.2 F720
G1 E.8 F2100
M204 S800
;TYPE:Skirt/Brim
;WIDTH:0.42
G1 F1200
G1 X80.88 Y88.847 E.04275
G1 X81.82 Y88.653 E.03009
G1 X168.18 Y88.653 E2.70776
G1 X169.487 Y89.045 E.04278
G1 X170.363 Y90.09 E.04275
G1 X170.557 Y91.03 E.03009
G1 X170.557 Y118.97 E.87604
G1 X170.165 Y120.277 E.04278
G1 X169.12 Y121.153 E.04275
G1 X168.18 Y121.347 E.03009
G1 X81.82 Y121.347 E2.70776
G1 X80.513 Y120.955 E.04278
M73 P0 R128
G1 X79.637 Y119.91 E.04275
G1 X79.443 Y118.97 E.03009
G1 X79.443 Y91.03 E.87604
G1 X79.817 Y89.78 E.04091
M204 S1000
; printing object razer-4k-holder-3.1.stl id:0 copy 0
;WIPE_START
G1 F8640
G1 X79.835 Y89.723 E-.0138
G1 X80.88 Y88.847 E-.31486
G1 X81.82 Y88.653 E-.22162
G1 X82.901 Y88.653 E-.24972
;WIPE_END
G1 Z.6 F720
G1 X82.607 Y118.183 F10800
G1 Z.2 F720
G1 E.8 F2100
M204 S800
;TYPE:Perimeter
;WIDTH:0.419999
G1 F1200
G1 X82.607 Y91.817 E.82669
G1 X167.393 Y91.817 E2.6584
G1 X167.393 Y97.179 E.16812
G1 X167.393 Y118.183 E.65856
G1 X82.667 Y118.183 E2.65652
M204 S1000
G1 X82.23 Y118.56 F10800
M204 S800
;TYPE:External perimeter
G1 F1200
G1 X82.23 Y91.44 E.85033
G1 X167.77 Y91.44 E2.68204
G1 X167.77 Y97.179 E.17994
G1 X167.77 Y118.56 E.67039
G1 X82.29 Y118.56 E2.68016
M204 S1000
;WIPE_START
G1 F8640
G1 X82.23 Y118.56 E-.01385
G1 X82.23 Y115.155 E-.78615
;WIPE_END
G1 Z.6 F720
G1 X159.524 Y108.029 F10800
G1 Z.2 F720
G1 E.8 F2100
M204 S800
;TYPE:Perimeter
G1 F1200
G1 X159.414 Y108.137 E.00483
G1 X158.163 Y108.945 E.04669
G1 X157.96 Y109.026 E.00685
G1 X156.604 Y109.281 E.04326
G1 X156.389 Y109.28 E.00674
G1 X154.974 Y109.001 E.04522
G1 X154.768 Y108.915 E.007
G1 X153.522 Y108.076 E.0471
G1 X153.363 Y107.914 E.00712
G1 X152.555 Y106.663 E.04669
G1 X152.485 Y106.508 E.00533
G1 X152.219 Y105.104 E.0448
G1 X152.22 Y104.889 E.00674
G1 X152.499 Y103.474 E.04522
G1 X152.585 Y103.268 E.007
G1 X153.424 Y102.022 E.0471
G1 X153.586 Y101.863 E.00712
G1 X154.837 Y101.055 E.04669
G1 X155.04 Y100.974 E.00685
G1 X156.396 Y100.719 E.04326
G1 X156.611 Y100.72 E.00674
G1 X158.026 Y100.999 E.04522
G1 X158.232 Y101.085 E.007
G1 X159.478 Y101.924 E.0471
G1 X159.637 Y102.086 E.00712
G1 X160.445 Y103.337 E.04669
G1 X160.526 Y103.54 E.00685
G1 X160.781 Y104.896 E.04326
G1 X160.78 Y105.111 E.00674
G1 X160.501 Y106.526 E.04522
G1 X160.415 Y106.732 E.007
G1 X159.576 Y107.978 E.0471
G1 X159.567 Y107.987 E.0004
M204 S1000
G1 X159.282 Y107.74 F10800
M204 S800
;TYPE:External perimeter
G1 F1200
G1 X159.264 Y107.767 E.00102
G1 X158.922 Y108.006 E.01308
G1 X157.958 Y108.629 E.03599
G1 X157.891 Y108.656 E.00226
G1 X156.532 Y108.911 E.04335
G1 X156.462 Y108.911 E.00219
G1 X155.047 Y108.631 E.04523
G1 X154.978 Y108.603 E.00233
G1 X153.733 Y107.764 E.04707
G1 X153.68 Y107.71 E.00237
G1 X152.848 Y106.407 E.04847
G1 X152.589 Y105.034 E.04381
G1 X152.589 Y104.962 E.00226
G1 X152.869 Y103.547 E.04523
G1 X152.897 Y103.478 E.00233
G1 X153.736 Y102.233 E.04707
G1 X153.79 Y102.18 E.00237
G1 X155.042 Y101.371 E.04674
G1 X155.109 Y101.344 E.00226
G1 X156.468 Y101.089 E.04335
G1 X157.953 Y101.369 E.04738
G1 X159.267 Y102.236 E.04936
G1 X159.32 Y102.29 E.00237
G1 X160.129 Y103.542 E.04674
G1 X160.156 Y103.609 E.00226
G1 X160.411 Y104.968 E.04335
G1 X160.411 Y105.038 E.00219
G1 X160.131 Y106.453 E.04523
G1 X160.103 Y106.522 E.00233
G1 X159.316 Y107.69 E.04416
M204 S1000
;WIPE_START
G1 F8640
G1 X159.282 Y107.74 E-.01396
G1 X159.264 Y107.767 E-.00749
G1 X158.922 Y108.006 E-.09634
G1 X157.958 Y108.629 E-.26503
G1 X157.891 Y108.656 E-.01668
G1 X156.532 Y108.911 E-.31927
G1 X156.462 Y108.911 E-.01616
G1 X156.186 Y108.856 E-.06507
;WIPE_END
G1 Z.6 F720
G1 X97.441 Y106.67 F10800
G1 Z.2 F720
G1 E.8 F2100
M204 S800
;TYPE:Perimeter
G1 F1200
G1 X97.415 Y106.732 E.00211
G1 X96.576 Y107.978 E.0471
G1 X96.414 Y108.137 E.00712
G1 X95.163 Y108.945 E.04669
G1 X94.96 Y109.026 E.00685
G1 X93.604 Y109.281 E.04326
G1 X93.389 Y109.28 E.00674
G1 X91.974 Y109.001 E.04522
G1 X91.768 Y108.915 E.007
G1 X90.522 Y108.076 E.0471
G1 X90.363 Y107.914 E.00712
G1 X89.555 Y106.663 E.04669
G1 X89.474 Y106.46 E.00685
G1 X89.219 Y105.104 E.04326
G1 X89.22 Y104.889 E.00674
G1 X89.499 Y103.474 E.04522
G1 X89.585 Y103.268 E.007
G1 X90.424 Y102.022 E.0471
G1 X90.586 Y101.863 E.00712
G1 X91.837 Y101.055 E.04669
G1 X92.04 Y100.974 E.00685
G1 X93.396 Y100.719 E.04326
G1 X93.611 Y100.72 E.00674
G1 X95.026 Y100.999 E.04522
G1 X95.232 Y101.085 E.007
G1 X96.478 Y101.924 E.0471
G1 X96.637 Y102.086 E.00712
G1 X97.445 Y103.337 E.04669
G1 X97.526 Y103.54 E.00685
G1 X97.781 Y104.896 E.04326
G1 X97.78 Y105.111 E.00674
G1 X97.501 Y106.526 E.04522
G1 X97.464 Y106.615 E.00302
M204 S1000
G1 X97.085 Y106.549 F10800
M204 S800
;TYPE:External perimeter
G1 F1200
G1 X96.264 Y107.767 E.04606
G1 X96.21 Y107.82 E.00237
G1 X94.958 Y108.629 E.04674
G1 X94.891 Y108.656 E.00226
G1 X93.532 Y108.911 E.04335
G1 X92.047 Y108.631 E.04738
G1 X90.733 Y107.764 E.04936
G1 X90.68 Y107.71 E.00237
G1 X89.871 Y106.458 E.04674
G1 X89.844 Y106.391 E.00226
G1 X89.589 Y105.034 E.04329
G1 X89.589 Y104.962 E.00226
G1 X89.869 Y103.547 E.04523
G1 X89.897 Y103.478 E.00233
G1 X90.736 Y102.233 E.04707
G1 X92.042 Y101.371 E.04906
G1 X92.109 Y101.344 E.00226
G1 X93.468 Y101.089 E.04335
G1 X94.953 Y101.369 E.04738
G1 X95.022 Y101.397 E.00233
G1 X96.267 Y102.236 E.04707
G1 X96.32 Y102.29 E.00237
G1 X97.129 Y103.542 E.04674
G1 X97.156 Y103.609 E.00226
G1 X97.411 Y104.966 E.04329
G1 X97.411 Y105.038 E.00226
G1 X97.131 Y106.453 E.04523
G1 X97.113 Y106.496 E.00146
M204 S1000
;WIPE_START
G1 F8640
G1 X97.085 Y106.549 E-.01384
G1 X96.264 Y107.767 E-.33917
G1 X96.21 Y107.82 E-.01747
G1 X94.958 Y108.629 E-.34419
G1 X94.891 Y108.656 E-.01668
G1 X94.599 Y108.711 E-.06865
;WIPE_END
G1 Z.6 F720
G1 X166.46 Y91.987 F10800
G1 Z.2 F720
G1 E.8 F2100
M204 S800
;TYPE:Solid infill
;WIDTH:0.42055
G1 F1200
G1 X167.054 Y92.581 E.02638
G1 X167.054 Y93.115 E.01677
G1 X166.095 Y92.156 E.04259
G1 X165.561 Y92.156 E.01677
G1 X167.054 Y93.649 E.0663
G1 X167.054 Y94.183 E.01677
G1 X165.027 Y92.156 E.09001
G1 X164.493 Y92.156 E.01677
G1 X167.054 Y94.717 E.11372
G1 X167.054 Y95.251 E.01677
G1 X163.959 Y92.156 E.13744
G1 X163.425 Y92.156 E.01677
G1 X167.054 Y95.785 E.16115
G1 X167.054 Y96.319 E.01677
G1 X162.891 Y92.156 E.18486
G1 X162.357 Y92.156 E.01677
G1 X167.054 Y96.853 E.20858
G1 X167.054 Y97.387 E.01677
G1 X161.823 Y92.156 E.23229
G1 X161.289 Y92.156 E.01677
G1 X167.054 Y97.921 E.256
G1 X167.054 Y98.455 E.01677
G1 X160.755 Y92.156 E.27972
G1 X160.221 Y92.156 E.01677
M73 Q0 S130
G1 X167.054 Y98.989 E.30343
G1 X167.054 Y99.523 E.01677
G1 X159.687 Y92.156 E.32714
G1 X159.153 Y92.156 E.01677
G1 X167.054 Y100.057 E.35085
G1 X167.054 Y100.591 E.01677
G1 X158.619 Y92.156 E.37457
G1 X158.085 Y92.156 E.01677
G1 X167.054 Y101.125 E.39828
G1 X167.054 Y101.659 E.01677
G1 X157.551 Y92.156 E.42199
G1 X157.017 Y92.156 E.01677
G1 X167.054 Y102.193 E.44571
G1 X167.054 Y102.727 E.01677
G1 X156.483 Y92.156 E.46942
G1 X155.948 Y92.156 E.0168
G1 X167.054 Y103.262 E.49318
G1 X167.054 Y103.796 E.01677
G1 X155.414 Y92.156 E.51689
G1 X154.88 Y92.156 E.01677
G1 X167.054 Y104.33 E.5406
G1 X167.054 Y104.864 E.01677
G1 X154.346 Y92.156 E.56432
G1 X153.812 Y92.156 E.01677
G1 X167.054 Y105.398 E.58803
G1 X167.054 Y105.932 E.01677
G1 X153.278 Y92.156 E.61174
G1 X152.744 Y92.156 E.01677
G1 X167.054 Y106.466 E.63546
G1 X167.054 Y107 E.01677
G1 X152.21 Y92.156 E.65917
G1 X151.676 Y92.156 E.01677
G1 X167.054 Y107.534 E.68288
G1 X167.054 Y108.068 E.01677
G1 X151.142 Y92.156 E.70659
G1 X150.608 Y92.156 E.01677
G1 X167.054 Y108.602 E.73031
G1 X167.054 Y109.136 E.01677
G1 X150.074 Y92.156 E.75402
G1 X149.54 Y92.156 E.01677
G1 X158.047 Y100.664 E.37779
G1 X157.378 Y100.528 E.02144
G1 X149.006 Y92.156 E.37177
G1 X148.472 Y92.156 E.01677
G1 X156.709 Y100.393 E.36578
G1 X156.357 Y100.381 E.01106
G1 X156.193 Y100.412 E.00524
G1 X147.938 Y92.156 E.3666
G1 X147.404 Y92.156 E.01677
M73 P0 R127
G1 X155.743 Y100.496 E.37033
G1 X155.294 Y100.581 E.01435
G1 X146.87 Y92.156 E.3741
G1 X146.336 Y92.156 E.01677
G1 X154.857 Y100.678 E.37841
G1 X154.753 Y100.713 E.00345
G1 X154.512 Y100.867 E.00898
G1 X145.802 Y92.156 E.3868
G1 X145.268 Y92.156 E.01677
G1 X154.186 Y101.075 E.39604
G1 X153.861 Y101.284 E.01213
G1 X144.733 Y92.156 E.40534
G1 X144.199 Y92.156 E.01677
G1 X153.535 Y101.492 E.41458
G1 X153.393 Y101.583 E.0053
M73 P1 R127
M73 Q1 S130
G1 X153.232 Y101.723 E.0067
G1 X143.665 Y92.156 E.42484
G1 X143.131 Y92.156 E.01677
G1 X153.011 Y102.036 E.43874
G1 X152.795 Y102.354 E.01207
G1 X142.597 Y92.156 E.45286
G1 X142.063 Y92.156 E.01677
G1 X152.579 Y102.672 E.46698
G1 X152.363 Y102.99 E.01207
G1 X141.529 Y92.156 E.4811
G1 X140.995 Y92.156 E.01677
G1 X152.19 Y103.351 E.49713
G1 X152.099 Y103.794 E.0142
G1 X140.461 Y92.156 E.5168
G1 X139.927 Y92.156 E.01677
G1 X152.007 Y104.237 E.53645
G1 X151.916 Y104.68 E.0142
G1 X139.393 Y92.156 E.55612
G1 X138.859 Y92.156 E.01677
G1 X151.889 Y105.187 E.57864
G1 X152.02 Y105.851 E.02125
G1 X138.325 Y92.156 E.60815
G1 X137.791 Y92.156 E.01677
G1 X152.454 Y106.82 E.65115
M204 S1000
;WIPE_START
G1 F8640
G1 X150.004 Y104.37 E-.8
;WIPE_END
G1 Z.6 F720
G1 X160.477 Y103.094 F10800
G1 Z.2 F720
G1 E.8 F2100
M204 S800
G1 F1200
G1 X167.054 Y109.67 E.29204
G1 X167.054 Y110.204 E.01677
G1 X160.976 Y104.127 E.26988
G1 X161.093 Y104.778 E.02077
G1 X167.054 Y110.738 E.26468
G1 X167.054 Y111.272 E.01677
G1 X161.088 Y105.306 E.26493
G1 X161 Y105.752 E.01427
G1 X167.054 Y111.806 E.26884
G1 X167.054 Y112.34 E.01677
G1 X160.912 Y106.198 E.27274
G1 X160.82 Y106.641 E.01421
G1 X167.054 Y112.874 E.27681
G1 X167.054 Y113.408 E.01677
G1 X160.644 Y106.999 E.28462
G1 X160.428 Y107.317 E.01207
G1 X167.054 Y113.942 E.29421
G1 X167.054 Y114.477 E.0168
G1 X160.212 Y107.635 E.30383
G1 X159.996 Y107.953 E.01207
G1 X167.054 Y115.011 E.31342
G1 X167.054 Y115.545 E.01677
G1 X159.779 Y108.27 E.32306
G1 X159.476 Y108.501 E.01196
G1 X167.054 Y116.079 E.33651
G1 X167.054 Y116.613 E.01677
G1 X159.15 Y108.709 E.35099
G1 X158.825 Y108.918 E.01213
G1 X167.054 Y117.147 E.36542
G1 X167.054 Y117.681 E.01677
G1 X158.499 Y109.126 E.3799
G1 X158.247 Y109.287 E.00939
G1 X158.156 Y109.317 E.00301
G1 X166.682 Y117.844 E.37863
G1 X166.148 Y117.844 E.01677
G1 X157.719 Y109.414 E.37432
G1 X157.266 Y109.495 E.01445
G1 X165.614 Y117.844 E.37073
G1 X165.08 Y117.844 E.01677
G1 X156.813 Y109.577 E.36711
G1 X156.505 Y109.632 E.00982
G1 X156.314 Y109.611 E.00603
G1 X164.546 Y117.844 E.36558
G1 X164.012 Y117.844 E.01677
G1 X155.645 Y109.476 E.37157
G1 X154.975 Y109.341 E.02146
G1 X163.478 Y117.844 E.37759
G1 X162.944 Y117.844 E.01677
G1 X137.257 Y92.156 E1.14069
G1 X136.723 Y92.156 E.01677
G1 X162.41 Y117.844 E1.14069
G1 X161.876 Y117.844 E.01677
G1 X136.189 Y92.156 E1.14069
G1 X135.655 Y92.156 E.01677
G1 X161.342 Y117.844 E1.14069
G1 X160.808 Y117.844 E.01677
G1 X135.121 Y92.156 E1.14069
G1 X134.587 Y92.156 E.01677
G1 X160.274 Y117.844 E1.14069
G1 X159.74 Y117.844 E.01677
G1 X134.052 Y92.156 E1.14071
G1 X133.518 Y92.156 E.01677
M73 Q1 S129
G1 X159.206 Y117.844 E1.14071
G1 X158.671 Y117.844 E.0168
G1 X132.984 Y92.156 E1.14069
G1 X132.45 Y92.156 E.01677
G1 X158.137 Y117.844 E1.14069
G1 X157.603 Y117.844 E.01677
G1 X131.916 Y92.156 E1.14069
G1 X131.382 Y92.156 E.01677
G1 X157.069 Y117.844 E1.14069
G1 X156.535 Y117.844 E.01677
G1 X130.848 Y92.156 E1.14069
G1 X130.314 Y92.156 E.01677
G1 X156.001 Y117.844 E1.14069
G1 X155.467 Y117.844 E.01677
G1 X129.78 Y92.156 E1.14069
G1 X129.246 Y92.156 E.01677
G1 X154.933 Y117.844 E1.14069
G1 X154.399 Y117.844 E.01677
G1 X128.712 Y92.156 E1.14069
G1 X128.178 Y92.156 E.01677
G1 X153.865 Y117.844 E1.14069
G1 X153.331 Y117.844 E.01677
M73 P1 R126
G1 X127.644 Y92.156 E1.14069
G1 X127.11 Y92.156 E.01677
G1 X152.797 Y117.844 E1.14069
G1 X152.263 Y117.844 E.01677
G1 X126.576 Y92.156 E1.14069
G1 X126.042 Y92.156 E.01677
G1 X151.729 Y117.844 E1.14069
G1 X151.195 Y117.844 E.01677
G1 X125.508 Y92.156 E1.14069
G1 X124.974 Y92.156 E.01677
G1 X150.661 Y117.844 E1.14069
G1 X150.127 Y117.844 E.01677
G1 X124.44 Y92.156 E1.14069
G1 X123.906 Y92.156 E.01677
G1 X149.593 Y117.844 E1.14069
G1 X149.059 Y117.844 E.01677
G1 X123.371 Y92.156 E1.14071
G1 X122.837 Y92.156 E.01677
G1 X148.525 Y117.844 E1.14071
G1 X147.99 Y117.844 E.0168
G1 X122.303 Y92.156 E1.14069
G1 X121.769 Y92.156 E.01677
M73 P2 R126
G1 X147.456 Y117.844 E1.14069
G1 X146.922 Y117.844 E.01677
M73 Q2 S129
G1 X121.235 Y92.156 E1.14069
G1 X120.701 Y92.156 E.01677
G1 X146.388 Y117.844 E1.14069
G1 X145.854 Y117.844 E.01677
G1 X120.167 Y92.156 E1.14069
G1 X119.633 Y92.156 E.01677
G1 X145.32 Y117.844 E1.14069
G1 X144.786 Y117.844 E.01677
G1 X119.099 Y92.156 E1.14069
G1 X118.565 Y92.156 E.01677
G1 X144.252 Y117.844 E1.14069
G1 X143.718 Y117.844 E.01677
G1 X118.031 Y92.156 E1.14069
G1 X117.497 Y92.156 E.01677
G1 X143.184 Y117.844 E1.14069
G1 X142.65 Y117.844 E.01677
G1 X116.963 Y92.156 E1.14069
G1 X116.429 Y92.156 E.01677
M73 Q2 S128
G1 X142.116 Y117.844 E1.14069
G1 X141.582 Y117.844 E.01677
G1 X115.895 Y92.156 E1.14069
G1 X115.361 Y92.156 E.01677
G1 X141.048 Y117.844 E1.14069
G1 X140.514 Y117.844 E.01677
G1 X114.827 Y92.156 E1.14069
G1 X114.293 Y92.156 E.01677
G1 X139.98 Y117.844 E1.14069
G1 X139.446 Y117.844 E.01677
G1 X113.759 Y92.156 E1.14069
G1 X113.225 Y92.156 E.01677
G1 X138.912 Y117.844 E1.14069
G1 X138.378 Y117.844 E.01677
G1 X112.69 Y92.156 E1.14071
G1 X112.156 Y92.156 E.01677
G1 X137.844 Y117.844 E1.14071
G1 X137.309 Y117.844 E.0168
G1 X111.622 Y92.156 E1.14069
G1 X111.088 Y92.156 E.01677
G1 X136.775 Y117.844 E1.14069
G1 X136.241 Y117.844 E.01677
M73 P2 R125
G1 X110.554 Y92.156 E1.14069
G1 X110.02 Y92.156 E.01677
G1 X135.707 Y117.844 E1.14069
G1 X135.173 Y117.844 E.01677
G1 X109.486 Y92.156 E1.14069
G1 X108.952 Y92.156 E.01677
G1 X134.639 Y117.844 E1.14069
G1 X134.105 Y117.844 E.01677
G1 X108.418 Y92.156 E1.14069
G1 X107.884 Y92.156 E.01677
G1 X133.571 Y117.844 E1.14069
G1 X133.037 Y117.844 E.01677
G1 X107.35 Y92.156 E1.14069
G1 X106.816 Y92.156 E.01677
G1 X132.503 Y117.844 E1.14069
G1 X131.969 Y117.844 E.01677
G1 X106.282 Y92.156 E1.14069
G1 X105.748 Y92.156 E.01677
G1 X131.435 Y117.844 E1.14069
G1 X130.901 Y117.844 E.01677
G1 X105.214 Y92.156 E1.14069
G1 X104.68 Y92.156 E.01677
G1 X130.367 Y117.844 E1.14069
G1 X129.833 Y117.844 E.01677
G1 X104.146 Y92.156 E1.14069
G1 X103.612 Y92.156 E.01677
G1 X129.299 Y117.844 E1.14069
